!!!COM: Beethoven, Ludwig van
!!!CDT: 1770///-1827///
!!!OTL: Piano Sonata no. 14 in C-sharp minor ("Moonlight")
!!!OTP: moonlight
!!!ODT: 1801///
!!!ODE: Gr&auml;fin Giulietta Guicciardi
!!!OPS: 27
!!!ONM: 2
!!!OMV: 3
!!!OMD: Presto agitato
**kern	**kern	**dynam
*>[I,A,A1,A,B]	*>[I,A,A1,A,B]	*>[I,A,A1,A,B]
*>norep[I,A,B]	*>norep[I,A,B]	*>norep[I,A,B]
*>I	*>I	*>I
*staff2	*staff1	*staff1/2
*Ipiano	*Ipiano	*Ipiano
*clefF4	*clefF4	*
*k[f#c#g#d#]	*k[f#c#g#d#]	*k[f#c#g#d#]
*c#:	*c#:	*c#:
*M4/4	*M4/4	*M4/4
*MM154	*MM154	*MM154
=1-	=1-	=1-
8CC#''\L	16r	.
.	16GG#/LL	p
8GG#''\	16C#/	.
.	16E/JJ	.
8CC#''\	16G#/LL	.
.	16C#/	.
8GG#''\J	16E/	.
.	16G#/JJ	.
8CC#''\L	16c#/LL	.
.	16E/	.
8GG#''\	16G#/	.
.	16c#/JJ	.
*	*clefG2	*clefG2
8CC#''\	16e/LL	.
.	16G#/	.
8GG#''\J	16c#/	.
.	16e/JJ	.
=2!|:	=2!|:	=2!|:
*>A	*>A	*>A
8CC#''/L	16g#/LL	.
.	16c#/	.
8GG#''/	16e/	.
.	16g#/JJ	.
8CC#''/	16cc#/LL	.
.	16e/	.
8GG#''/J	16g#/	.
.	16cc#/JJ	.
8CC#''/L	16ee\LL	.
.	16g#\	.
8GG#''/	16cc#\	.
.	16ee\JJ	.
8CC#''/ 8C#''/	8g#''\ 8cc#''\ 8ee''\ 8gg#''\L	.
8GG#''/J	8g#''\ 8cc#''\ 8ee''\ 8gg#''\J	.
=3	=3	=3
*	*clefF4	*clefF4
8BBB#''\L	16r	.
.	16GG#/LL	.
8GG#''\	16BB#/	.
.	16D#/JJ	.
8BBB#''\	16G#/LL	.
.	16BB#/	.
8GG#''\J	16D#/	.
.	16G#/JJ	.
8BBB#''\L	16B#/LL	.
.	16D#/	.
8GG#''\	16G#/	.
.	16B#/JJ	.
8BBB#''\	16d#/LL	.
.	16G#/	.
8GG#''\J	16B#/	.
.	16d#/JJ	.
=4	=4	=4
*	*clefG2	*clefG2
8BBB#''/L	16g#/LL	.
.	16B#/	.
8GG#''/	16d#/	.
.	16g#/JJ	.
8BBB#''/	16b#/LL	.
.	16d#/	.
8GG#''/J	16g#/	.
.	16b#/JJ	.
8BBB#''/L	16dd#\LL	.
.	16g#\	.
8GG#''/	16b#\	.
.	16dd#\JJ	.
8BBB#''/ 8BB#''/	8g#''\ 8b#''\ 8dd#''\ 8gg#''\L	.
8GG#''/J	8g#''\ 8b#''\ 8dd#''\ 8gg#''\J	.
=5	=5	=5
*	*clefF4	*
8BBBn''\L	16r	.
.	16C#/LL	.
8GG#''\	16E#/	.
.	16G#/JJ	.
8BBB''\	16c#/LL	.
.	16E#/	.
8GG#''\J	16G#/	.
.	16c#/JJ	.
*	*clefG2	*clefG2
8BBB''/L	16e#/LL	.
.	16G#/	.
8GG#''/	16c#/	.
.	16e#/JJ	.
8BBB''/	16g#/LL	.
.	16c#/	.
8GG#''/J	16e#/	.
.	16g#/JJ	.
=6	=6	=6
8BBB''/L	16cc#\LL	.
.	16e#\	.
8GG#''/	16g#\	.
.	16cc#\JJ	.
8BBB''/	16ee#\LL	.
.	16g#\	.
8GG#''/J	16cc#\	.
.	16ee#\JJ	.
8BBB''/L	16gg#\LL	.
.	16cc#\	.
8GG#''/	16ee#\	.
.	16gg#\JJ	.
8BBB''/ 8BB''/	8cc#''\ 8ee#''\ 8gg#''\ 8ccc#''\L	.
8GG#''/J	8cc#''\ 8ee#''\ 8gg#''\ 8ccc#''\J	.
=7	=7	=7
*	*clefF4	*clefF4
8AAA''\L	16r	.
.	(16C#/LL	.
8AA''\	16F#/	.
.	16A/JJ)	.
*	*clefG2	*clefG2
8AAA''\	16c#'/LL	.
.	(16c#/	.
8AA''\J	16f#/	.
.	16a/JJ)	.
8AAA''/L	16cc#'\LL	.
.	(16cc#\	.
8AA''/	16ff#\	.
.	16aa\JJ)	.
8AAA''/	8cc#''\ 8ff#''\ 8ccc#''\L	.
8AA''/J	8cc#''\ 8ff#''\ 8ccc#''\J	.
=8	=8	=8
*	*clefF4	*clefF4
8AAA''\L	16r	.
.	(16C#/LL	.
8AA''\	16E/	.
.	16F##/JJ)	.
*	*clefG2	*clefG2
8AAA''\	16c#'/LL	.
.	(16c#/	.
8AA\J	16e/	.
.	16f##/JJ)	.
8AAA''/L	16cc#'\LL	.
.	(16cc#\	.
8AA''/	16ee\	.
.	16ff##\JJ)	.
8AAA''/	8cc#''\ 8ff##''\ 8ccc#''\L	.
8AA''/J	8cc#''\ 8ff##''\ 8ccc#''\J	.
=9	=9	=9
8GGG#''/ 8GG#''/	8b#''\ 8gg#''\ 8bb#''\	f
*clefG2	*	*
*^	*	*
8B#/L	[4.G#\	(16g#\LL	.
.	.	16gg#\JJ	.
8B#/	.	16g#\LL	.
.	.	16gg#\	.
8c#/J	.	16a#\	.
.	.	16gg#\JJ	.
8d#/L	2G#\_	16b#\LL	.
.	.	16gg#\	.
8e/	.	16cc#\	.
.	.	16gg#\JJ	.
8f#/	.	16dd#\LL	.
.	.	16gg#\	.
8d#/J	.	16b#\	.
.	.	16gg#\JJ	.
=10	=10	=10	=10
(8f#/L	1G#]	16dd#\LL	.
.	.	16gg#\	.
8e/	.	16cc#\	.
.	.	16gg#\JJ	.
8a/	.	16ff#\LL	.
.	.	16gg#\	.
8g#/J	.	16ee\	.
.	.	16gg#\JJ	.
8f#/L	.	16dd#\LL	.
.	.	16gg#\	.
8e/	.	16cc#\	.
.	.	16gg#\JJ	.
8d#/	.	16b#\LL	.
.	.	16gg#\	.
8c#/J)	.	16an\	.
.	.	16ff##\JJ)	.
=11	=11	=11	=11
(8B#/L	[1G#	16g#\LL	.
.	.	16gg#\	.
8B#/	.	16g#\	.
.	.	16gg#\JJ	.
8B#/	.	16g#\LL	.
.	.	16gg#\	.
8c#/J	.	16a#\	.
.	.	16gg#\JJ	.
8d#/L	.	16b#\LL	.
.	.	16gg#\	.
8e/	.	16cc#\	.
.	.	16gg#\JJ	.
8f#/	.	16dd#\LL	.
.	.	16gg#\	.
8d#/J)	.	16b#\	.
.	.	16gg#\JJ	.
=12	=12	=12	=12
(8f#/L	1G#]	16dd#\LL	.
.	.	16gg#\	.
8e/	.	16cc#\	.
.	.	16gg#\JJ	.
8a/	.	16ff#\LL	.
.	.	16gg#\	.
8g#/J	.	16ee\	.
.	.	16gg#\JJ	.
8f#/L	.	16dd#\LL	.
.	.	16gg#\	.
8e/	.	16cc#\	.
.	.	16gg#\JJ	.
8d#/	.	16b#\LL	.
.	.	16gg#\	.
8c#/J)	.	16an\	.
.	.	16ff##\JJ	.
*v	*v	*	*
=13	=13	=13
8G#''/ 8B#''/L	16g#\LL	.
.	16gg#\	.
8G#''/ 8c#''/	16a\	.
.	16ff##\JJ	.
8G#''/ 8B#''/	16g#\LL	.
.	16gg#\	.
8G#''/ 8c#''/J	16a\	.
.	16ff##\JJ	.
8G#''/ 8B#''/L	16g#\LL	.
.	16gg#\	.
8G#''/ 8c#''/	16a\	.
.	16ff##\JJ	.
8G#''/ 8B#''/	16g#\LL	.
.	16gg#\	.
8G#''/ 8c#''/J	16a\	.
.	16ff##\JJ	.
=14	=14	=14
4G#''/ 4B#''/	4g#''\ 4gg#''\	.
*clefF4	*clefF4	*clefF4
2.GGG#;\ 2.GG#;\	2.G#;/	.
=15	=15	=15
8CC#''\L	16r	.
.	16GG#/LL	p
8GG#''\	16C#/	.
.	16E/JJ	.
8CC#''\	16G#/LL	.
.	16C#/	.
8GG#''\J	16E/	.
.	16G#/JJ	.
8CC#''\L	16c#/LL	.
.	16E/	.
8GG#''\	16G#/	.
.	16c#/JJ	.
*	*clefG2	*clefG2
8CC#''\	16e/LL	.
.	16G#/	.
8GG#''\J	16c#/	.
.	16e/JJ	.
=16	=16	=16
8CC#''/L	16g#/LL	.
.	16c#/	.
8GG#''/	16e/	.
.	16g#/JJ	.
8CC#''/	16cc#/LL	.
.	16e/	.
8GG#''/J	16g#/	.
.	16cc#/JJ	.
8CC#''/L	16ee\LL	.
.	16ee\	.
8GG#''/	16gg#\	.
.	16ccc#\JJ	.
8CC#''/ 8C#''/	8ee''\ 8eee''\L	.
8GG#''/J	8ee''\ 8eee''\J	.
=17	=17	=17
*	*clefF4	*clefF4
8AAA#''\L	16r	.
.	16E/LL	.
8C#''\	16F##/	.
.	16c#/JJ	.
*	*clefG2	*clefG2
8AA#''\	16e/LL	.
.	16F##/	.
8C#''\J	16c#/	.
.	16e/JJ	.
8AA#''/L	16f##/LL	.
.	16c#/	.
8C#''/	16e/	.
.	16f##/JJ	.
8AA#''/	16cc#/LL	.
.	16e/	.
8C#''/J	16f##/	.
.	16cc#/JJ	.
=18	=18	=18
8AA#''/L	16ee\LL	.
.	16f##\	.
8C#''/	16cc#\	.
.	16ee\JJ	.
8AA#''/	16ff##\LL	.
.	16cc#\	.
8C#''/J	16ee\	.
.	16ff##\JJ	.
8AA#''/L	16ccc#\LL	.
.	16ee\	.
8C#''/	16ff##\	.
.	16ccc#\JJ	.
8AAA#''/ 8AA#''/	8ee''\ 8eee''\L	.
8C#''/J	8ee''\ 8eee''\J	.
*	*clefF4	*clefF4
=19	=19	=19
8FFF##''\L	16r	.
.	16D#/LL	.
8D#''\	16A#/	.
.	16c#/JJ	.
*	*clefG2	*clefG2
8FF##''\	16d#/LL	.
.	16A#/	.
8D#''\J	16c#/	.
.	16d#/JJ	.
8FF##''/L	16a#/LL	.
.	16c#/	.
8D#''/	16d#/	.
.	16a#/JJ	.
8FF##''/	16cc#/LL	.
.	16d#/	.
8D#''/J	16a#/	.
.	16cc#/JJ	.
=20	=20	=20
8FF##/L	16dd#\LL	.
.	16a#\	.
8D#/	16cc#\	.
.	16dd#\JJ	.
8FF##/	16aa#\LL	.
.	16cc#\	.
8D#/J	16dd#\	.
.	16aa#\JJ	.
8FF##/L	16ccc#\LL	.
.	16aa#\	.
8D#/	16dd#\	.
.	16cc#\JJ	.
8FF##/	16aa#\LL	.
.	16dd#\	.
8D#/J	16cc#\	.
.	16a#\JJ	.
=21	=21	=21
16GG#/LL	4b'\	p
16D#/	.	.
16BB/	.	.
16D#/JJ	.	.
16GG#/LL	(2dd#^\	.
16D#/	.	.
16BB/	.	.
16D#/JJ	.	.
16GG#/LL	.	.
16D#/	.	.
16BB/	.	.
16D#/JJ	.	.
16GG#/LL	8.b/L	.
16D#/	.	.
16BB/	.	.
16D#/JJ	16g#/Jk)	.
=22	=22	=22
.	(16f##q/LL	.
.	16g#q/	.
.	16a#q/JJ	.
16AA#/LL	(4g#/)	.
16D#/	.	.
16C#/	.	.
16D#/JJ	.	.
16AA#/LL	[4f##/)	.
16D#/	.	.
16C#/	.	.
16D#/JJ	.	.
16AA#/LL	8f##/L]	.
16D#/	.	.
16C#/	(8f##/	.
16D#/JJ	.	.
16AA#/LL	8.dd#/	.
16D#/	.	.
16C#/	.	.
16D#/JJ	16f##/Jk)	.
=23	=23	=23
16BB/LL	(4a#/	.
16D#/	.	.
16BB/	.	.
16D#/JJ	.	.
16BB/LL	[4g#/)	.
16D#/	.	.
16BB/	.	.
16D#/JJ	.	.
16BB/LL	8g#/L]	.
16D#/	.	.
16BB/	(8g#/	.
16D#/JJ	.	.
16BB/LL	8.dd#/	.
16D#/	.	.
16BB/	.	.
16D#/JJ	16g#/Jk)	.
=24	=24	=24
16FF##/LL	(4b/	.
16D#/	.	.
16FF##/	.	.
16D#/JJ	.	.
16FF##/LL	[4a#/)	.
16D#/	.	.
16FF##/	.	.
16D#/JJ	.	.
16FF##/LL	8a#/L]	.
16D#/	.	.
16FF##/	(8a#/	.
16D#/JJ	.	.
16FF##/LL	8.dd#/	.
16D#/	.	.
16FF##/	.	.
16D#/JJ	16a#/Jk)	.
=25	=25	=25
16GG#/LL	8b'\	.
16D#/	.	.
16BB/	4dd#\ 4ddd#\	.
16D#/JJ	.	.
16GG#/LL	.	.
16D#/	.	.
16BB/	4dd#\ 4ddd#\	.
16D#/JJ	.	.
16GG#/LL	.	.
16D#/	.	.
16BB/	8dd#'\ 8ddd#'\L	.
16D#/JJ	.	.
16GG#/LL	8b'\ 8bb'\	.
16D#/	.	.
16BB/	8g#'\ 8gg#'\J	.
16D#/JJ	.	.
=26	=26	=26
16AA#/LL	8g#'\ 8gg#'\	.
16D#/	.	.
16C#/	4f##\ 4ff##\	.
16D#/JJ	.	.
16AA#/LL	.	.
16D#/	.	.
16C#/	4f##\ 4ff##\	.
16D#/JJ	.	.
16AA#/LL	.	.
16D#/	.	.
16C#/	8f##'\ 8ff##'\L	.
16D#/JJ	.	.
16AA#/LL	8dd#'\ 8ddd#'\	.
16D#/	.	.
16C#/	8f##'\ 8ff##'\J	.
16D#/JJ	.	.
=27	=27	=27
16BB/LL	8a#'\ 8aa#'\	.
16D#/	.	.
16BB/	4g#\ 4gg#\	.
16D#/JJ	.	.
16BB/LL	.	.
16D#/	.	.
16BB/	4g#\ 4gg#\	.
16D#/JJ	.	.
16BB/LL	.	.
16D#/	.	.
16BB/	8g#'\ 8gg#'\L	.
16D#/JJ	.	.
16BB/LL	8dd#'\ 8ddd#'\	.
16D#/	.	.
16BB/	8g#'\ 8gg#'\J	.
16D#/JJ	.	.
=28	=28	=28
16FF##/LL	8b'\ 8bb'\	.
16D#/	.	.
16FF##/	4a#\ 4aa#\	.
16D#/JJ	.	.
16FF##/LL	.	.
16D#/	.	.
16FF##/	4a#\ 4aa#\	.
16D#/JJ	.	.
16FF##/LL	.	.
16D#/	.	.
16FF##/	8a#'\ 8aa#'\L	.
16D#/JJ	.	.
16FF##/LL	8dd#'\ 8ddd#'\	.
16D#/	.	.
16FF##/	8a#'\ 8aa#'\J	.
16D#/JJ	.	.
=29	=29	=29
16FF#/LL	2b#\ 2bb#\	.
16D#/	.	.
16GG#/	.	.
16D#/JJ	.	.
16FF#/LL	.	.
16D#/	.	.
16GG#/	.	.
16D#/JJ	.	.
16EE/LL	2cc#\ 2ccc#\	.
16C#/	.	.
16GG#/	.	.
16C#/JJ	.	.
16EE/LL	.	.
16C#/	.	.
16GG#/	.	.
16C#/JJ	.	.
=30	=30	=30
16EE/LL	4a#\ 4aa#\	.
16C#/	.	.
16FF#/	.	.
16C#/JJ	.	.
.	(16gg#q/LL	.
.	16aa#q/JJ	.
16DD#/LL	2.bn\ 2.bbn\)	.
16BB/	.	.
16FF#/	.	.
16BB/JJ	.	.
16DD#/LL	.	.
16BB/	.	.
16FF#/	.	.
16BB/JJ	.	.
16DD#/LL	.	.
16BB/	.	.
16FF#/	.	.
16BB/JJ	.	.
=31	=31	=31
16DDn/LL	2g#\ 2gg#\	.
16BB/	.	.
16EE/	.	.
16BB/JJ	.	.
16DD/LL	.	.
16BB/	.	.
16EE/	.	.
16BB/JJ	.	.
16CC#/LL	2an\ 2aan\	.
16AA/	.	.
16EE/	.	.
16AA/JJ	.	.
16CC#/LL	.	.
16AA/	.	.
16EE/	.	.
16AA/JJ	.	.
=32	=32	=32
16CC#/LL	4f##\ 4ff##\	.
16AA#/	.	.
16DD#/	.	.
16AA#/JJ	.	.
.	(16eeq/LL	.
.	16ff##q/JJ)	.
16BBB/LL	2.g#\ 2.gg#\	.
16GG#/	.	.
16DD#/	.	.
16GG#/JJ	.	.
16BBB/LL	.	.
16GG#/	.	.
16DD#/	.	.
16GG#/JJ	.	.
16BBB/LL	.	.
16GG#/	.	.
16DD#/	.	.
16GG#/JJ	.	.
=33	=33	=33
[2CC#/ [2EE/ [2AAn/ [2C#/	[2an\ [2cc#\ [2ee\ [2aan\	ff
4CC#/] 4EE/] 4AA/] 4C#/]	16a\] 16cc#\] 16ee\] 16aa\LL]	.
.	16ee\	p
.	16ff#\	.
.	16gg#\JJ	.
4r	16aa\LL	.
.	16bb\	.
.	16ccc#\	.
.	16bb\JJ	.
*clefG2	*	*
=34	=34	=34
4c#/ 4e/ 4a/	16aa\LL	.
.	16ee\	.
.	16ff#\	.
.	16gg#\JJ	.
4r	16aa\LL	.
.	16bb\	.
.	16ccc#\	.
.	16bb\JJ	.
4c#/ 4e/ 4a/	16aa\LL	.
.	16ee\	.
.	16ff#\	.
.	16gg#\JJ	.
4r	16aa\LL	.
.	16bb\	.
.	16ccc#\	.
.	16bb\JJ	.
=35	=35	=35
4c#/ 4e/ 4a/	16aa\LL	.
.	16ee\	.
.	16ff#\	.
.	16gg#\JJ	.
4c#/ 4e/ 4a/	16aa\LL	.
.	16bb\	.
.	16ccc#\	.
.	16dddn\JJ	.
4c#/ 4e/ 4a/	16eee\LL	.
.	16ddd#\	.
.	16eee\	.
.	16ddd#\JJ	.
4c#/ 4e/ 4a/	16eee\LL	.
.	16ccc#\	.
.	16bb\	.
.	16aa\JJ	.
=36	=36	=36
16d#/LL	2gg#\	p
16b/	.	.
16g#/	.	.
16b/JJ	.	.
16d#/LL	.	.
16b/	.	.
16g#/	.	.
16b/JJ	.	.
16d#/LL	2aa#\	.
16cc#/	.	.
16f##/	.	.
16cc#/JJ	.	.
16d#/LL	.	.
16cc#/	.	.
16f##/	.	.
16cc#/JJ	.	.
=37	=37	=37
4e'/ 4g#'/ 4b'/	4gg#\	.
*clefF4	*	*
[4CC#/ [4EE/ [4AAn/ [4C#/	[4An/ [4c#/ [4e/ [4an/	ff
4CC#/] 4EE/] 4AA/] 4C#/]	16A/] 16c#/] 16e/] 16a/LL]	.
.	16e/	p
.	16f#/	.
.	16g#/JJ	.
4r	16a/LL	.
.	16b/	.
.	16cc#/	.
.	16b/JJ	.
=38	=38	=38
4r	16a/LL	.
.	16e/	.
.	16f#/	.
.	16g#/JJ	.
4C#\ 4E\ 4A\	16a/LL	.
.	16b/	.
.	16cc#/	.
.	16b/JJ	.
4r	16a/LL	.
.	16e/	.
.	16f#/	.
.	16g#/JJ	.
4C#\ 4E\ 4A\	16a/LL	.
.	16b/	.
.	16cc#/	.
.	16b/JJ	.
=39	=39	=39
8r	16a/LL	.
.	16e/	.
8C#\ 8E\ 8A\	16f#/	.
.	16g#/JJ	.
8r	16a/LL	.
.	16b/	.
8C#\ 8E\ 8A\	16cc#/	.
.	16b/JJ	.
8r	16a/LL	.
.	16e/	.
8C#\ 8E\ 8A\	16f#/	.
.	16g#/JJ	.
8r	16a/LL	.
.	16b/	.
8C#\ 8E\ 8A\	16cc#/	.
.	16b/JJ	.
=40	=40	=40
4C#\ 4E\ 4A\	16a/LL	.
.	16e/	.
.	16f#/	.
.	16g#/JJ	.
4r	16a\LL	.
.	16b\	.
.	16cc#\	.
.	16ddn\JJ	.
2r	16ee\LL	.
.	16ff#\	.
.	16gg#\	.
.	16aa\JJ	.
.	16bb\LL	.
.	16ccc#\	.
.	16dddn\	.
.	16ddd#\JJ	.
=41	=41	=41
16C#\LL	2ee\ 2eee\	f
(16A\	.	.
16E\	.	.
16A\JJ)	.	.
16C#\LL	.	.
16A\	.	.
16E\	.	.
16A\JJ	.	.
16Dn\LL	2g#\ 2gg#\	.
16B\	.	.
16E#\	.	.
16B\JJ	.	.
16D\LL	.	.
16B\	.	.
16E#\	.	.
16B\JJ	.	.
=42	=42	=42
16D#\LL	2b\ 2bb\	.
16B\	.	.
16G#\	.	.
16B\JJ	.	.
16D#\LL	.	.
16B\	.	.
16G#\	.	.
16B\JJ	.	.
16DD#\LL	2F##/ 2c#/ 2f##/	f
16D#\	.	.
16C##\	.	.
16D#\JJ	.	.
16C##\LL	.	.
16D#\	.	.
16C##\	.	.
16D#\JJ	.	.
=43	=43	=43
8GG#/	8G#/ 8B/ 8g#/	.
8G#'\L	8d#'/ 8b'/L	p
8G#'\	8d#'/ 8b'/	.
8G#'\J	8d#'/ 8b'/J	.
8G#'\L	8d#'/ 8b'/L	.
8G#'\	8d#'/ 8b'/	.
8A#'\	8d#'/ 8a#'/	.
8B'\J	8d#'/ 8g#'/J	.
=44	=44	=44
8D#\ 8c#\	8d#/ 8f##/	.
8c#\ 8d#\L	8f##/ 8dd#/L	.
8c#\ 8d#\	8f##/ 8dd#/	.
8c#\ 8d#\J	8f##/ 8dd#/J	.
8c#\ 8d#\L	8f##/ 8dd#/L	.
8c#\ 8d#\	8f##/ 8dd#/	.
8B\ 8d#\	8g#/ 8dd#/	.
8A#\ 8d#\J	8a#/ 8dd#/J	.
=45	=45	=45
8GG#\ 8G#\	8b\ 8dd#\	.
8G#\L	8d#/ 8b/L	.
8G#\	8d#/ 8b/	.
8G#\J	8d#/ 8b/J	.
8G#\L	8d#/ 8b/L	.
8G#\	8d#/ 8b/	.
8A#\	8d#/ 8a#/	.
8B\J	8d#/ 8g#/J	.
=46	=46	=46
8D#\ 8c#\	8d#/ 8f##/	.
8c#\ 8d#\L	8f##/ 8dd#/L	.
8c#\ 8d#\	8f##/ 8dd#/	.
8c#\ 8d#\J	8f##/ 8dd#/J	.
8c#\ 8d#\L	8f##/ 8dd#/L	.
8c#\ 8d#\	8f##/ 8dd#/	.
8B\ 8d#\	8g#/ 8dd#/	.
8A#\ 8d#\J	8a#/ 8dd#/J	.
=47	=47	=47
8GG#/	8b'\ 8dd#'\	.
8G#'\ 8B'\L	8b'\ 8dd#'\L	.
8G#\ (8B\	8b\ (8dd#\	.
8B\ 8d#\J)	8g#\ 8b\J)	.
8C#'/	8r	.
8G#'\ 8c#'\L	8cc#'\ 8ee'\L	.
8G#\ (8c#\	8cc#\ (8ee\	.
8c#\ 8e\J)	8g#\ 8cc#\J)	.
=48	=48	=48
8D#'\	8r	.
8G#'\ 8B'\L	8b'\ 8dd#'\L	.
8G#\ (8B\	8b\ (8dd#\	.
8B\ 8d#\J)	8g#\ 8b\J)	.
8D#'\	8r	.
8F##'\ 8A#'\L	8a#'/ 8dd#'/L	.
8F##\ (8A#\	(8a#/ 8dd#/	.
8A#\ 8d#\J)	8f##/) 8a#/J	.
=49	=49	=49
8GGG#/ 8GG#/	8g#\ 8b\	p
8GG#'/ 8D#'/L	8b'\ 8dd#'\ 8bb'\L	.
8GG#'/ 8D#'/	8b'\ 8dd#'\ 8bb'\	.
8GG#'/ 8D#'/J	8b'\ 8dd#'\ 8bb'\J	.
8GG#'/ 8D#'/L	8b'\ 8dd#'\ 8bb'\L	.
8GG#'/ 8D#'/	8b'\ 8dd#'\ 8bb'\	.
8AA#'/ 8D#'/	8a#'\ 8cc#'\ 8aa#'\	.
8BB'/ 8D#'/J	8g#'\ 8b'\ 8gg#'\J	.
=50	=50	=50
8DD#/ 8C#/ 8D#/	8f##\ 8a#\ 8ff##\	.
8D#\ 8c#\L	8ee\ 8ff##\ 8eee\L	f
8D#\ 8c#\	8ee\ 8ff##\ 8eee\	.
8D#\ 8c#\J	8ee\ 8ff##\ 8eee\J	.
8D#\ 8c#\L	8ee\ 8ff##\ 8eee\L	.
8D#\ 8c#\	8ee\ 8ff##\ 8eee\	.
8D#\ 8B\	8dd#\ 8ff##\ 8ddd#\	.
8D#\ 8A#\J	8cc#\ 8ff##\ 8ccc#\J	.
=51	=51	=51
8GGG#/ 8GG#/	8b\ 8gg#\ 8bb\	.
8GG#/ 8D#/L	8b\ 8dd#\ 8bb\L	p
8GG#/ 8D#/	8b\ 8dd#\ 8bb\	.
8GG#/ 8D#/J	8b\ 8dd#\ 8bb\J	.
8GG#/ 8D#/L	8b\ 8dd#\ 8bb\L	.
8GG#/ 8D#/	8b\ 8dd#\ 8bb\	.
8AA#/ 8D#/	8a#\ 8cc#\ 8aa#\	.
8BB/ 8D#/J	8g#\ 8b\ 8gg#\J	.
=52	=52	=52
8DD#/ 8C#/ 8D#/	8f##\ 8a#\ 8ff##\	.
8D#\ 8c#\L	8ee\ 8ff##\ 8eee\L	f
8D#\ 8c#\	8ee\ 8ff##\ 8eee\	.
8D#\ 8c#\J	8ee\ 8ff##\ 8eee\J	.
8D#\ 8c#\L	8ee\ 8ff##\ 8eee\L	.
8D#\ 8c#\	8ee\ 8ff##\ 8eee\	.
8D#\ 8B\	8dd#\ 8ff##\ 8ddd#\	.
8D#\ 8A#\J	8cc#\ 8ff##\ 8ccc#\J	.
=53	=53	=53
8GG#\ 8G#\	8b\ 8gg#\ 8bb\	.
8B'\ 8d#'\L	8gg#'\ 8bb'\L	p
8B\ (8d#\	(8bb\	.
8G#\ 8B\J)	8bb\ 8ddd#\J)	.
8C#'\	8r	.
8c#'\ 8e'\L	8gg#'\ 8ccc#'\L	.
8c#\ (8e\	8gg#\ (8ccc#\	.
8G#\ 8c#\J)	8ccc#\ 8eee\J)	.
=54	=54	=54
8D#'\	8r	.
8B'\ 8d#'\L	8gg#'\ 8bb'\L	.
8B\ (8d#\	8gg#\ (8bb\	.
8G#\ 8B\J)	8bb\ 8ddd#\J)	.
8C#'\	8r	.
8A#'\ 8d#'\L	8ff##'\ 8aa#'\L	.
8A#\ (8d#\	8ff##\ (8aa#\	.
8F##\ 8A#\J)	8aa#\ 8ddd#\J)	.
=55	=55	=55
8BB/	8r	.
*clefG2	*	*
8d#'/ 8g#'/L	8dd#'\ 8bb'\L	.
(8d#/ 8g#/	8dd#\ (8bb\	.
8B/) 8d#/J	8gg#\ 8ddd#\J)	.
*clefF4	*	*
8C#'/	8r	.
*clefG2	*	*
8e'/ 8an'/L	8cc#'\ (8aan'\L	.
(8e/ 8a/	8cc#\ 8aa\	.
8c#/) 8e/J	8ee\ 8ccc#\J)	.
*clefF4	*	*
=56	=56	=56
8D#'/	8r	.
*clefG2	*	*
8d#'/ 8g#'/L	8b'\ 8gg#'\L	.
(8d#/ 8g#/	8b\ (8gg#\	.
8B/) 8d#/J	8dd#\ 8bb\J)	.
*clefF4	*	*
8D#/	8r	.
*clefG2	*	*
8c#'/ 8f##'/L	8a#'\ 8ff##'\L	.
(8c#/ 8f##/	8a#\ (8ff##\	.
8A#/) 8c#/J	8cc#\ 8aa#\J)	.
*clefF4	*	*
=57	=57	=57
16GG#\LL	4b\ 4gg#\	p
16G#\	.	.
16D#\	.	.
16G#\JJ	.	.
16GG#\LL	4r	.
16G#\	.	.
16D#\	.	.
16G#\JJ	.	.
16GG#\LL	4r	.
16G#\	.	.
16D#\	.	.
16G#\JJ	.	.
16GG#\LL	(8.b/L	.
16G#\	.	.
16D#\	.	.
16G#\JJ	16g#/Jk)	.
=58	=58	=58
16GG#\LL	4f##/	.
16A#\	.	.
16D#\	.	.
16A#\JJ	.	.
16GG#\LL	(4c#'/ 4f##'/ 4dd#'/	.
16A#\	.	.
16D#\	.	.
16A#\JJ	.	.
16GG#\LL	4c#'/ 4f##'/ 4dd#'/	.
16A#\	.	.
16D#\	.	.
16A#\JJ	.	.
16GG#\LL	4c#'/) 4f##'/ 4dd#'/	.
16A#\	.	.
16D#\	.	.
16A#\JJ	.	.
=59	=59	=59
.	(16Bq/LL	.
.	16g#q/JJ	.
16GG#\LL	2.dd#\)	.
16G#\	.	.
16D#\	.	.
16G#\JJ	.	.
16GG#\LL	.	.
16G#\	.	.
16D#\	.	.
16G#\JJ	.	.
16GG#\LL	.	.
16G#\	.	.
16D#\	.	.
16G#\JJ	.	.
16GG#\LL	(8.bb\L	.
16G#\	.	.
16D#\	.	.
16G#\JJ	16gg#\Jk)	.
=60	=60	=60
16GG#\LL	4ff##\	.
16A#\	.	.
16D#\	.	.
16A#\JJ	.	.
16GG#\LL	4cc#'\ 4ff##'\ (4ddd#'\	.
16A#\	.	.
16D#\	.	.
16A#\JJ	.	.
16GG#\LL	4cc#'\ 4ff##'\ 4ddd#'\	.
16A#\	.	.
16D#\	.	.
16A#\JJ	.	.
16GG#\LL	4cc#'\ 4ff##'\ 4ddd#'\)	.
16A#\	.	.
16D#\	.	.
16A#\JJ	.	.
=61	=61	=61
.	(16bq/LL	.
.	16gg#q/JJ	.
16GG#\LL	2ddd#\)	.
16G#\	.	.
16D#\	.	.
16G#\JJ	.	.
16GG#\LL	.	.
16G#\	.	.
16D#\	.	.
16G#\JJ	.	.
.	(16cc#q/LL	.
.	16ff##q/JJ	.
16GG#\LL	2ddd#\)	.
16A#\	.	.
16D#\	.	.
16A#\JJ	.	.
16GG#\LL	.	.
16A#\	.	.
16D#\	.	.
16A#\JJ	.	.
=62	=62	=62
.	(16bq/LL	.
.	16gg#q/JJ	.
16GG#\LL	2ddd#\)	.
16G#\	.	.
16D#\	.	.
16G#\JJ	.	.
16GG#\LL	.	.
16G#\	.	.
16D#\	.	.
16G#\JJ	.	.
.	(16cc#q/LL	.
.	16ff##q/JJ	.
16GG#\LL	2ddd#\)	.
16A#\	.	.
16D#\	.	.
16A#\JJ	.	.
16GG#\LL	.	.
16A#\	.	.
16D#\	.	.
16A#\JJ	.	.
=63	=63	=63
16GG#\LL	16B/LL	.
16G#\	16g#/	.
16D#\	16d#/	.
16G#\JJ	16g#/JJ	.
16GG#\LL	16B/LL	.
16G#\	16g#/	.
16D#\	16d#/	.
16G#\JJ	16g#/JJ	.
16GG#\LL	16B/LL	.
16G#\	16g#/	.
16D#\	16d#/	.
16G#\JJ	16g#/JJ	.
16GG#\LL	16B/LL	.
16G#\	16g#/	.
16D#\	16d#/	.
16G#\JJ	16g#/JJ	.
=64	=64	=64
16GG#\LL	16B#/LL	.
16F#\	16f#/	.
16D#\	16d#/	.
16F#\JJ	16f#/JJ	.
16GG#\LL	16B#/LL	.
16F#\	16f#/	.
16D#\	16d#/	.
16F#\JJ	16f#/JJ	.
16GG#\LL	16B#/LL	.
16F#\	16f#/	.
16D#\	16d#/	.
16F#\JJ	16f#/JJ	.
16GG#\LL	16B#/LL	.
16F#\	16f#/	.
16D#\	16d#/	.
16F#\JJ	16f#/JJ	.
=65	=65	=65
*>A1	*>A1	*>A1
8CC#''\L	16E/ 16G#/ 16c#/ 16e/	f
*	*clefF4	*clefF4
.	16GG#/LL	p
8GG#''\	16C#/	.
.	16E/JJ	.
8CC#''\	16G#/LL	.
.	16C#/	.
8GG#''\J	16E/	.
.	16G#/JJ	.
8CC#''\L	16c#/LL	.
.	16E/	.
8GG#''\	16G#/	.
.	16c#/JJ	.
*	*clefG2	*clefG2
8CC#''\	16e/LL	.
.	16G#/	.
8GG#''\J	16c#/	.
.	16e/JJ	.
=66:|!	=66:|!	=66:|!
*>A2	*>A2	*>A2
8CC#''\L	16E#/ 16G#/ 16c#/ 16e#/	f
*	*clefF4	*clefF4
.	16C#/LL	p
8GG#''\	16E/	.
.	16G#/JJ	.
8CC#\	16c#/LL	.
.	16E/	.
8GG#''\J	16G#/	.
.	16c#/JJ	.
*	*clefG2	*clefG2
8CC#''\L	16e#/LL	.
.	16G#/	.
8GG#''\	16c#/	.
.	16e#/JJ	.
8CC#''\	16g#/LL	.
.	16c#/	.
8GG#''\J	16e#/	.
.	16g#/JJ	.
=67	=67	=67
*>B	*>B	*>B
8CC#''/L	16cc#/LL	.
.	16e#/	.
8GG#''/	16g#/	.
.	16cc#/JJ	.
8CC#''/	16ee#\LL	.
.	16g#\	.
8GG#''/J	16cc#\	.
.	16ee#\JJ	.
8CC#''/L	16gg#\LL	.
.	16cc#\	.
8GG#''/	16ee#\	.
.	16gg#\JJ	.
8CC#''/ 8C#''/	8cc#''\ 8ee#''\ 8gg#''\ 8ccc#''\L	.
8GG#''/J	8cc#''\ 8ee#''\ 8gg#''\ 8ccc#''\J	.
*	*clefF4	*clefF4
=68	=68	=68
8BBB''\L	16r	.
.	16C#/LL	.
8GG#''\	16E#/	.
.	16G#/JJ	.
8BBB''\	16c#/LL	.
.	16E#/	.
8GG#''\J	16G#/	.
.	16c#/JJ	.
*	*clefG2	*clefG2
8BBB''/L	16e#/LL	.
.	16G#/	.
8GG#''/	16c#/	.
.	16e#/JJ	.
8BBB''/	16g#/LL	.
.	16c#/	.
8GG#''/J	16e#/	.
.	16g#/JJ	.
=69	=69	=69
8BBB''/L	16cc#\LL	.
.	16e#\	.
8GG#''/	16g#\	.
.	16cc#\JJ	.
8BBB''/	16ee#\LL	.
.	16g#\	.
8GG#''/J	16cc#\	.
.	16ee#\JJ	.
8BBB''/L	16gg#\LL	.
.	16cc#\	.
8GG#''/	16ee#\	.
.	16gg#\JJ	.
8BBB''/ 8BB''/	8cc#''\ 8ee#''\ 8gg#''\ 8ccc#''\L	.
8GG#''/J	8cc#''\ 8ee#''\ 8gg#''\ 8ccc#''\J	.
*	*clefF4	*clefF4
=70	=70	=70
8AAA''\L	16r	.
.	(16C#/LL	.
8AA''\	16F#/	.
.	16A/JJ)	.
*	*clefG2	*clefG2
8AAA''\	16c#'/LL	.
.	(16c#/	.
8AA''\J	16f#/	.
.	16a/JJ)	.
8AAA''/L	16cc#'\LL	.
.	(16cc#\	.
8AA''/	16ff#\	.
.	16aa\JJ)	.
8AAA''/	8cc#''\ 8ff#''\ 8aa''\ 8ccc#''\L	.
8AA''/J	8cc#''\ 8ff#''\ 8aa''\ 8ccc#''\J	.
*	*clefF4	*clefF4
=71	=71	=71
8EEE#''\L	16r	.
.	(16C#/LL	.
8EE#''\	16G#/	.
.	16B/JJ)	.
*	*clefG2	*clefG2
8EEE#''\	16c#'/LL	.
.	(16c#/	.
8EE#''\J	16g#/	.
.	16b/JJ)	.
8EEE#''/L	16cc#'\LL	.
.	(16cc#\	.
8EE#''/	16gg#\	.
.	16bb\JJ)	.
8EEE#''/	8cc#''\ 8gg#''\ 8bb''\ 8ccc#''\L	.
8EE#''/J	8cc#''\ 8gg#''\ 8bb''\ 8ccc#''\J	.
=72	=72	=72
16FFF#\ 16FF#\LL	4cc#''\ 4ff#''\ 4aa''\ 4ccc#''\	p
16c#\	.	.
16A\	.	.
16c#\JJ	.	.
16F#\LL	(2cc#\	.
16c#\	.	.
16A\	.	.
16c#\JJ	.	.
16F#\LL	.	.
16c#\	.	.
16A\	.	.
16c#\JJ	.	.
16F#\LL	8.a/L	.
16c#\	.	.
16A\	.	.
16c#\JJ	16f#/Jk)	.
=73	=73	=73
.	(16e#q/LL	.
.	16f#q/	.
.	16g#q/JJ	.
16G#\LL	(4f#/)	.
16c#\	.	.
16B\	.	.
16c#\JJ	.	.
16G#\LL	[4e#/)	.
16c#\	.	.
16B\	.	.
16c#\JJ	.	.
16G#\LL	8e#/L]	.
16c#\	.	.
16B\	(8e#/	.
16c#\JJ	.	.
16G#\LL	8.cc#/	.
16c#\	.	.
16B\	.	.
16c#\JJ	16e#/Jk)	.
=74	=74	=74
16A\LL	(4g#/	.
16c#\	.	.
16A\	.	.
16c#\JJ	.	.
16A\LL	[4f#/)	.
16c#\	.	.
16A\	.	.
16c#\JJ	.	.
16A\LL	8f#/L]	.
16c#\	.	.
16A\	(8f#/	.
16c#\JJ	.	.
16A\LL	8.cc#/	.
16c#\	.	.
16A\	.	.
16c#\JJ	16f#/Jk)	.
=75	=75	=75
16E#\LL	(4a/	.
16c#\	.	.
16E#\	.	.
16c#\JJ	.	.
16E#\LL	[4g#/)	.
16c#\	.	.
16E#\	.	.
16c#\JJ	.	.
16E#\LL	8g#/L]	.
16c#\	.	.
16E#\	(8g#/	.
16c#\JJ	.	.
16E#\LL	8.cc#/	.
16c#\	.	.
16E#\	.	.
16c#\JJ	16g#/Jk)	.
=76	=76	=76
4F#\	16a/LL	.
.	16cc#/	.
.	16a/	.
.	16cc#/JJ	.
(2c#\	16f#/LL	.
.	16cc#/	.
.	16a/	.
.	16cc#/JJ	.
.	16f#/LL	.
.	16cc#/	.
.	16a/	.
.	16cc#/JJ	.
8.A\L	16f#/LL	.
.	16cc#/	.
.	16a/	.
16F#\Jk)	16cc#/JJ	.
=77	=77	=77
(4F#\	16g#/LL	.
.	16cc#/	.
.	16b/	.
.	16cc#/JJ	.
[4E#\)	16g#/LL	.
.	16cc#/	.
.	16b/	.
.	16cc#/JJ	.
8E#\L]	16g#/LL	.
.	16cc#/	.
(8E#\	16b/	.
.	16cc#/JJ	.
8.c#\	16g#/LL	.
.	16cc#/	.
.	16b/	.
16E#\Jk)	16cc#/JJ	.
=78	=78	=78
(4G#\	16f#/LL	.
.	16cc#/	.
.	16a/	.
.	16cc#/JJ	.
[4F#\)	16f#/LL	.
.	16cc#/	.
.	16a/	.
.	16cc#/JJ	.
8F#\L]	16f#/LL	.
.	16cc#/	.
(8F#\	16a/	.
.	16cc#/JJ	.
8.c#\	16f#/LL	.
.	16cc#/	.
.	16a/	.
16F#\Jk)	16cc#/JJ	.
=79	=79	=79
8F#'\L	16f#/LL	.
.	16ddn/	.
(8F#\	16a/	.
.	16dd/JJ	.
8.dn\	16f#/LL	.
.	16dd/	.
.	16a/	.
16F#\Jk)	16dd/JJ	.
8F#'\L	16a\LL	.
.	16dd\	.
(8F#\	16ccn\	.
.	16dd\JJ	.
8.d\	16a\LL	.
.	16dd\	.
.	16cc\	.
16F#\Jk)	16dd\JJ	.
=80	=80	=80
4Gn'\	16gn\LL	.
.	16ddn\	.
.	16b\	.
.	16dd\JJ	.
(2Dn/	16g\LL	.
.	16dd\	.
.	16b\	.
.	16dd\JJ	.
.	16g\LL	.
.	16dd\	.
.	16b\	.
.	16dd\JJ	.
8.BB/L	16g\LL	.
.	16dd\	.
.	16b\	.
16GGn/Jk)	16dd\JJ	.
=81	=81	=81
(4GGn/	16a\LL	.
.	16ddn\	.
.	16ccn\	.
.	16dd\JJ	.
[4FF#/)	16a\LL	.
.	16dd\	.
.	16cc\	.
.	16dd\JJ	.
8FF#/L]	16a\LL	.
.	16dd\	.
(8FF#/	16cc\	.
.	16dd\JJ	.
8.Dn/	16a\LL	.
.	16dd\	.
.	16cc\	.
16FF#/Jk)	16dd\JJ	.
=82	=82	=82
(4AA/	16gn\LL	.
.	16ddn\	.
.	16b\	.
.	16dd\JJ	.
[4GGn/)	16g\LL	.
.	16dd\	.
.	16b\	.
.	16dd\JJ	.
8GG/L]	16g\LL	.
.	16dd\	.
(8GG/	16b\	.
.	16dd\JJ	.
8.Dn/	16g\LL	.
.	16dd\	.
.	16b\	.
16FF#/Jk)	16dd\JJ	.
=83	=83	=83
(4FF#/	16g#\LL	.
.	16ddn\	.
.	16b\	.
.	16dd\JJ	.
[4EE#/)	16g#\LL	.
.	16cc#\	.
.	16b\	.
.	16cc#\JJ	.
8EE#/L]	16g#\LL	.
.	16cc#\	.
(8EE#/	16b\	.
.	16cc#\JJ	.
8.C#/	16g#\LL	.
.	16cc#\	.
.	16b\	.
16EE#/Jk)	16cc#\JJ	.
=84	=84	=84
8FF#'/L	16f#\LL	.
.	16cc#\	.
(8FF#/	16a\	.
.	16cc#\JJ	.
8AA/	16f#\LL	.
.	16cc#\	.
8FF#/J	16a\	.
.	16cc#\JJ	.
8DDn'/L)	16f#\LL	.
.	16ff#\	.
(8DD/	16a\	.
.	16ff#\JJ	.
8FF#/	16f#\LL	.
.	16ff#\	.
8DD/J)	16a\	.
.	16ff#\JJ	.
=85	=85	=85
[2BBB#/	16f#\LL	.
.	16ff#\	.
.	16g#\ 16dd#\	.
.	16ff#\JJ	.
.	16f#\LL	.
.	16ff#\	.
.	16g#\ 16dd#\	.
.	16ff#\JJ	.
8BBB#/L]	16f#\LL	.
.	16ff#\	.
(8BBB#/	16g#\ 16dd#\	.
.	16ff#\JJ	.
8DD#/	16f#\LL	.
.	16ff#\	.
8BBB#/J	16g#\ 16dd#\	.
.	16ff#\JJ	.
=86	=86	=86
8CC#'/L)	16e\LL	.
.	16ee\	.
(8CC#/	16cc#\	.
.	16ee\JJ	.
8EE/	16e\LL	.
.	16ee\	.
8CC#/J	16cc#\	.
.	16ee\JJ	.
8AAA'/L)	16e\LL	.
.	16ee\	.
(8AAA/	16cc#\	.
.	16ee\JJ	.
8CC#/	16e\LL	.
.	16ee\	.
8AAA/J)	16cc#\	.
.	16ee\JJ	.
=87	=87	=87
8FFF#'/L	16d#\LL	.
.	16dd#\	.
(8FFF#/	16cc#\	.
.	16dd#\JJ	.
8AAA/	16d#\LL	.
.	16dd#\	.
8FFF#/J)	16cc#\	.
.	16dd#\JJ	.
8FFF##'/L	16d#\LL	.
.	16dd#\	.
(8FFF##/	16cc#\	.
.	16dd#\JJ	.
8AAA#/	16d#\LL	.
.	16dd#\	.
8FFF##/J)	16cc#\	.
.	16dd#\JJ	.
=88	=88	=88
16GGG#/LL	4d#/ 4b#/ 4dd#/	.
16GG#/	.	.
16GGG#/	.	.
16GG#/JJ	.	.
16GGG#/LL	(2g#/	.
16GG#/	.	.
16GGG#/	.	.
16GG#/JJ	.	.
16GGG#/LL	.	.
16GG#/	.	.
16GGG#/	.	.
16GG#/JJ	.	.
16GGG#/LL	8a/L	.
16GG#/	.	.
16GGG#/	8g#/J	.
16GG#/JJ	.	.
=89	=89	=89
*^	*	*
2A/ 2c#/	16GGG#\LL	4f#/	.
.	16GG#\	.	.
.	16GGG#\	.	.
.	16GG#\JJ	.	.
.	16GGG#\LL	8g#/L	.
.	16GG#\	.	.
.	16GGG#\	8f#/J	.
.	16GG#\JJ	.	.
2G#/ 2B/	16GGG#\LL	4e/	.
.	16GG#\	.	.
.	16GGG#\	.	.
.	16GG#\JJ	.	.
.	16GGG#\LL	8f#/L	.
.	16GG#\	.	.
.	16GGG#\	8e/J	.
.	16GG#\JJ	.	.
=90	=90	=90	=90
2F#/ 2A/	16GGG#\LL	4d#/	.
.	16GG#\	.	.
.	16GGG#\	.	.
.	16GG#\JJ	.	.
.	16GGG#\LL	8e/L	.
.	16GG#\	.	.
.	16GGG#\	8d#/J	.
.	16GG#\JJ	.	.
2E/ 2G#/	16GGG#\LL	4c#/	.
.	16GG#\	.	.
.	16GGG#\	.	.
.	16GG#\JJ	.	.
.	16GGG#\LL	8d#/L	.
.	16GG#\	.	.
.	16GGG#\	8c#/J	.
.	16GG#\JJ	.	.
=91	=91	=91	=91
2D#/ 2F#/	16GGG#\LL	2B#/	.
.	16GG#\	.	.
.	16GGG#\	.	.
.	16GG#\JJ	.	.
.	16GGG#\LL	.	.
.	16GGG#\	.	.
.	16GG#\	.	.
.	16GG#\JJ	.	.
2C#/ 2E/	16GGG#\LL	2c#/	.
.	16GG#\	.	.
.	16GGG#\	.	.
.	16GG#\JJ	.	.
.	16GGG#\LL	.	.
.	16GGG#\	.	.
.	16GG#\	.	.
.	16GG#\JJ	.	.
*v	*v	*	*
=92	=92	=92
16GGG#/LL	4d#'/)	.
16GG#/	.	.
16GGG#/	.	.
16GG#/JJ	.	.
16GGG#/LL	[4gg#\	.
16GG#/	.	.
16GGG#/	.	.
16GG#/JJ	.	.
16GGG#/LL	8gg#\L]	.
16GG#/	.	.
16GGG#/	8gg#'\	.
16GG#/JJ	.	.
16GGG#/LL	8aa'\	.
16GG#/	.	.
16GGG#/	8gg#'\J	.
16GG#/JJ	.	.
=93	=93	=93
16GGG#/LL	8ff#'\L	.
16GG#/	.	.
16GGG#/	8a'\ 8cc#'\ 8ff#'\	.
16GG#/JJ	.	.
16GGG#/LL	8b'\ 8dd#'\ 8gg#'\	.
16GG#/	.	.
16GGG#/	8a'\ 8cc#'\ 8ff#'\J	.
16GG#/JJ	.	.
16GGG#/LL	8g#\ 8b\ 8ee\L	.
16GG#/	.	.
16GGG#/	8g#'\ 8b'\ 8ee'\	.
16GG#/JJ	.	.
16GGG#/LL	8a'\ 8cc#'\ 8ff#'\	.
16GG#/	.	.
16GGG#/	8g#'\ 8b'\ 8ee'\J	.
16GG#/JJ	.	.
=94	=94	=94
16GGG#/LL	8f#'\ 8a'\ 8dd#'\L	.
16GG#/	.	.
16GGG#/	8f#'\ 8a'\ 8dd#'\	.
16GG#/JJ	.	.
16GGG#/LL	8g#'\ 8b'\ 8ee'\	.
16GG#/	.	.
16GGG#/	8f#'\ 8a'\ 8dd#'\J	.
16GG#/JJ	.	.
16GGG#/LL	8e'\ 8g#'\ 8cc#'\L	.
16GG#/	.	.
16GGG#/	8e'\ 8g#'\ 8cc#'\	.
16GG#/JJ	.	.
16GGG#/LL	8f#'\ 8a'\ 8dd#'\	.
16GG#/	.	.
16GGG#/	8e'\ 8g#'\ 8cc#'\J	.
16GG#/JJ	.	.
=95	=95	=95
16GGG#/LL	2d#/ 2f#/ 2b#/	p
16GG#/	.	.
16GGG#/	.	.
16GG#/JJ	.	.
16GGG#/LL	.	.
16GG#/	.	.
16GGG#/	.	.
16GG#/JJ	.	.
16GGG#/LL	2c#/ 2e/ 2cc#/	.
16GG#/	.	.
16GGG#/	.	.
16GG#/JJ	.	.
16GGG#/LL	.	.
16GG#/	.	.
16GGG#/	.	.
16GG#/JJ	.	.
=96	=96	=96
.	16B#q/LL	.
.	(16f#q/JJ	.
16GGG#/LL	2.f#/) 2.dd#/	.
16GG#/	.	.
16GGG#/	.	.
16GG#/JJ	.	.
16GGG#/LL	.	.
16GG#/	.	.
16GGG#/	.	.
16GG#/JJ	.	.
16GGG#/LL	.	.
16GG#/	.	.
16GGG#/	.	.
16GG#/JJ	.	.
16GGG#/LL	4c#/ 4e/ 4cc#/	.
16GG#/	.	.
16GGG#/	.	.
16GG#/JJ	.	.
=97	=97	=97
16GGG#/LL	(4d#'/ 4f#'/ 4b#'/	.
16GG#/	.	.
16GGG#/	.	.
16GG#/JJ	.	.
16GGG#/LL	4d#'/ 4f#'/ 4b#'/	.
16GG#/	.	.
16GGG#/	.	.
16GG#/JJ	.	.
16GGG#/LL	4c#'/ 4e'/ 4cc#'/	.
16GG#/	.	.
16GGG#/	.	.
16GG#/JJ	.	.
16GGG#/LL	4c#'/) 4e'/ 4cc#'/	.
16GG#/	.	.
16GGG#/	.	.
16GG#/JJ	.	.
=98	=98	=98
.	16B#q/LL	.
.	(16f#q/JJ	.
16GGG#/LL	2.f#/) 2.dd#/	.
16GG#/	.	.
16GGG#/	.	.
16GG#/JJ	.	.
16GGG#/LL	.	.
16GG#/	.	.
16GGG#/	.	.
16GG#/JJ	.	.
16GGG#/LL	.	.
16GG#/	.	.
16GGG#/	.	.
16GG#/JJ	.	.
16GGG#/LL	(8c#/ 8e/L	.
16GG#/	.	.
16GGG#/	8cc#/J)	.
16GG#/JJ	.	.
=99	=99	=99
16GGG#/LL	(8d#/ 8f#/L	.
16GG#/	.	.
16GGG#/	8b#/J)	.
16GG#/JJ	.	.
16GGG#/LL	(8d#/ 8f#/L	.
16GG#/	.	.
16GGG#/	8b#/J	.
16GG#/JJ	.	.
16GGG#/LL	(8c#/ 8e/L)	.
16GG#/	.	.
16GGG#/	8cc#/	.
16GG#/JJ	.	.
16GGG#/LL	(8c#/ 8e/)	.
16GG#/	.	.
16GGG#/	8cc#/J)	.
16GG#/JJ	.	.
=100	=100	=100
16GGG#/LL	(8B#/ 8f#/L	.
16GG#/	.	.
16GGG#/	8dd#/	.
16GG#/JJ	.	.
16GGG#/LL	(8B#/ 8f#/)	.
16GG#/	.	.
16GGG#/	8dd#/J	.
16GG#/JJ	.	.
16GGG#/LL	(8c#/) 8e/L	.
16GG#/	.	.
16GGG#/	8cc#/	.
16GG#/JJ	.	.
16GGG#/LL	(8c#/ 8e/)	.
16GG#/	.	.
16GGG#/	8cc#/J)	.
16GG#/JJ	.	.
=101	=101	=101
1FFF# 1FF# 1A 1c#	1d# 1a	p
=102	=102	=102
1GGG# 1GG# 1G# 1B#	1d# 1g#	pp
=103	=103	=103
*	*clefF4	*clefF4
8CC#''\L	16r	.
.	16GG#/LL	.
8GG#''\	16C#/	.
.	16E/JJ	.
8CC#''\	16G#/LL	.
.	16C#/	.
8GG#''\J	16En/	.
.	16G#/JJ	.
8CC#''\L	16c#/LL	.
.	16E/	.
8GG#''\	16G#/	.
.	16c#/JJ	.
*	*clefG2	*clefG2
8CC#''\	16en/LL	.
.	16G#/	.
8GG#''\J	16c#/	.
.	16e/JJ	.
=104	=104	=104
8CC#''/L	16g#/LL	.
.	16c#/	.
8GG#''/	16e/	.
.	16g#/JJ	.
8CC#''/	16cc#/LL	.
.	16e/	.
8GG#''/J	16g#/	.
.	16cc#/JJ	.
8CC#''/L	16ee\LL	.
.	16g#\	.
8GG#''/	16cc#\	.
.	16ee\JJ	.
8CC#''/ 8C#''/	8g#''\ 8cc#''\ 8ee''\ 8gg#''\L	.
8GG#''/J	8g#''\ 8cc#''\ 8ee''\ 8gg#''\J	.
*	*clefF4	*clefF4
=105	=105	=105
8BBB#''\L	16r	.
.	16GG#/LL	.
8GG#''\	16BB#/	.
.	16D#/JJ	.
8BBB#''\	16G#/LL	.
.	16BB#/	.
8GG#''\J	16D#/	.
.	16G#/JJ	.
8BBB#''\L	16B#/LL	.
.	16D#/	.
8GG#''\	16G#/	.
.	16B#/JJ	.
8BBB#''\	16d#/LL	.
.	16G#/	.
8GG#''\J	16B#/	.
.	16d#/JJ	.
=106	=106	=106
*	*clefG2	*clefG2
8BBB#''/L	16g#/LL	.
.	16B#/	.
8GG#''/	16d#/	.
.	16g#/JJ	.
8BBB#''/	16b#/LL	.
.	16d#/	.
8GG#''/J	16g#/	.
.	16b#/JJ	.
8BBB#''/L	16dd#\LL	.
.	16g#\	.
8GG#''/	16b#\	.
.	16dd#\JJ	.
8BBB#''/ 8BB#''/	8g#''\ 8b#''\ 8dd#''\ 8gg#''\L	.
8GG#''/J	8g#''\ 8b#''\ 8dd#''\ 8gg#''\J	.
*	*clefF4	*clefF4
=107	=107	=107
8BBB''\L	16r	.
.	16C#/LL	.
8GG#''\	16E/	.
.	16G#/JJ	.
8BBB''\	16c#/LL	.
.	16E/	.
8GG#''\J	16G#/	.
.	16c#/JJ	.
*	*clefG2	*clefG2
8BBB''/L	16e#/LL	.
.	16G#/	.
8GG#''/	16c#/	.
.	16e#/JJ	.
8BBB''/	16g#/LL	.
.	16c#/	.
8GG#''/J	16e#/	.
.	16g#/JJ	.
=108	=108	=108
8BBB''/L	16cc#\LL	.
.	16e#\	.
8GG#''/	16g#\	.
.	16cc#\JJ	.
8BBB''/	16ee#\LL	.
.	16g#\	.
8GG#''/J	16cc#\	.
.	16ee#\JJ	.
8BBB''/L	16gg#\LL	.
.	16cc#\	.
8GG#''/	16ee#\	.
.	16gg#\JJ	.
8BBB''/ 8BB''/	8cc#''\ 8ee#''\ 8gg#''\ 8ccc#''\L	.
8GG#''/J	8cc#''\ 8ee#''\ 8gg#''\ 8ccc#''\J	.
=109	=109	=109
*	*clefF4	*clefF4
8AAA''\L	16r	.
.	(16C#/LL	.
8AA''\	16F#/	.
.	16A/JJ)	.
*	*clefG2	*clefG2
8AAA''\	16c#'/LL	.
.	(16c#/	.
8AA''\J	16f#/	.
.	16a/JJ)	.
8AAA''/L	16cc#'\LL	.
.	(16cc#\	.
8AA''/	16ff#\	.
.	16aa\JJ)	.
8AAA''/	8cc#''\ 8ff#''\ 8ccc#''\L	.
8AA''/J	8cc#''\ 8ff#''\ 8ccc#''\J	.
*	*clefF4	*clefF4
=110	=110	=110
8AAA''\L	16r	.
.	16C#/LL	.
8AA''\	16E/	.
.	16F##/JJ	.
*	*clefG2	*clefG2
8AAA''\	16c#'/LL	.
.	(16c#/	.
8AA''\J	16e/	.
.	16f##/JJ)	.
8AAA''/L	16cc#'\LL	.
.	(16cc#\	.
8AA''/	16ee\	.
.	16ff##\JJ)	.
8AAA''/	8cc#''\ 8ff##''\ 8ccc#''\L	.
8AA''/J	8cc#''\ 8ff##''\ 8ccc#''\J	.
=111	=111	=111
8GGG#''/ 8GG#''/	8b#''\ 8gg#''\ 8bb#''\	f
*clefG2	*	*
*^	*	*
8B#/L	[4.G#\	16g#\LL	.
.	.	16gg#\JJ	.
(8B#/	.	16g#\LL	.
.	.	16gg#\	.
8c#/J	.	16a#\	.
.	.	16gg#\JJ	.
8d#/L	2G#\_	16b#\LL	.
.	.	16gg#\	.
8e/	.	16cc#\	.
.	.	16gg#\JJ	.
8f#/	.	16dd#\LL	.
.	.	16gg#\	.
8d#/J)	.	16b#\	.
.	.	16gg#\JJ	.
=112	=112	=112	=112
(8f#/L	1G#]	16dd#\LL	.
.	.	16gg#\	.
8e/	.	16cc#\	.
.	.	16gg#\JJ	.
8a/	.	16ff#\LL	.
.	.	16gg#\	.
8g#/J	.	16ee\	.
.	.	16gg#\JJ	.
8f#/L	.	16dd#\LL	.
.	.	16gg#\	.
8e/	.	16cc#\	.
.	.	16gg#\JJ	.
8d#/	.	16b#\LL	.
.	.	16gg#\	.
8c#/J)	.	16an\	.
.	.	16ff##\JJ	.
=113	=113	=113	=113
8B#/L	[1G#	16g#\LL	.
.	.	16gg#\	.
8B#/	.	16g#\	.
.	.	16gg#\JJ	.
(8B#/	.	16g#\LL	.
.	.	16gg#\	.
8c#/J	.	16a#\	.
.	.	16gg#\JJ	.
8d#/L	.	16b#\LL	.
.	.	16gg#\	.
8e/	.	16cc#\	.
.	.	16gg#\JJ	.
8f#/	.	16dd#\LL	.
.	.	16gg#\	.
8d#/J)	.	16b#\	.
.	.	16gg#\JJ	.
=114	=114	=114	=114
(8f#/L	1G#]	16dd#\LL	.
.	.	16gg#\	.
8e/	.	16cc#\	.
.	.	16gg#\JJ	.
8a/	.	16ff#\LL	.
.	.	16gg#\	.
8g#/J	.	16ee\	.
.	.	16gg#\JJ	.
8f#/L	.	16dd#\LL	.
.	.	16gg#\	.
8e/	.	16cc#\	.
.	.	16gg#\JJ	.
8d#/	.	16b#\LL	.
.	.	16gg#\	.
8c#/J)	.	16an\	.
.	.	16ff##\JJ	.
*v	*v	*	*
=115	=115	=115
8G#/ 8B#/L	16g#\LL	.
.	16gg#\	.
8G#''/ 8c#''/	16a\	.
.	16ff##\JJ	.
8G#''/ 8B#''/	16g#\LL	.
.	16gg#\	.
8G#''/ 8c#''/J	16a\	.
.	16ff##\JJ	.
8G#''/ 8B#''/L	16g#\LL	.
.	16gg#\	.
8G#''/ 8c#''/	16a\	.
.	16ff##\JJ	.
8G#''/ 8B#''/	16g#\LL	.
.	16gg#\	.
8G#''/ 8c#''/J	16a\	.
.	16ff##\JJ	.
=116	=116	=116
4G#''/ 4B#''/	4g#''\ 4gg#''\	.
*clefF4	*	*
2.GGG#;/ 2.GG#;/	2.G#;/	.
=117	=117	=117
16C#\LL	4r	p
16G#\	.	.
16E\	.	.
16G#\JJ	.	.
16C#\LL	(2g#/	p
16G#\	.	.
16E\	.	.
16G#\JJ	.	.
16C#\LL	.	.
16G#\	.	.
16E\	.	.
16G#\JJ	.	.
16C#\LL	8.e/L	.
16G#\	.	.
16E\	.	.
16G#\JJ	16c#/Jk)	.
=118	=118	=118
.	(16B#q/LL	.
.	16c#q/	.
.	16d#q/JJ	.
16D#\LL	(4c#/)	.
16G#\	.	.
16F#\	.	.
16G#\JJ	.	.
16D#\LL	[4B#/)	.
16G#\	.	.
16F#\	.	.
16G#\JJ	.	.
16D#\LL	8B#/L]	.
16G#\	.	.
16F#\	(8B#/	.
16G#\JJ	.	.
16D#\LL	8.g#/	.
16G#\	.	.
16F#\	.	.
16G#\JJ	16B#/Jk)	.
=119	=119	=119
16E\LL	(4d#/	.
16G#\	.	.
16E\	.	.
16G#\JJ	.	.
16E\LL	[4c#/)	.
16G#\	.	.
16E\	.	.
16G#\JJ	.	.
16E\LL	8c#/L]	.
16G#\	.	.
16E\	(8c#/	.
16G#\JJ	.	.
16E\LL	8.g#/	.
16G#\	.	.
16E\	.	.
16G#\JJ	16c#/Jk)	.
=120	=120	=120
16BB#\LL	(4e/	.
16G#\	.	.
16BB#\	.	.
16G#\JJ	.	.
16BB#\LL	[4d#/)	.
16G#\	.	.
16BB#\	.	.
16G#\JJ	.	.
16BB#\LL	8d#/L]	.
16G#\	.	.
16BB#\	(8d#/	.
16G#\JJ	.	.
16BB#\LL	8.g#/	.
16G#\	.	.
16BB#\	.	.
16G#\JJ	16d#/Jk	.
=121	=121	=121
16C#\LL	8e'/)	.
16G#\	.	.
16E\	4g#\ 4gg#\	.
16G#\JJ	.	.
16C#\LL	.	.
16G#\	.	.
16E\	4g#\ 4gg#\	.
16G#\JJ	.	.
16C#\LL	.	.
16G#\	.	.
16E\	8g#'\ 8gg#'\L	.
16G#\JJ	.	.
16C#\LL	8e'\ 8ee'\	.
16G#\	.	.
16E\	8c#'\ 8cc#'\J	.
16G#\JJ	.	.
=122	=122	=122
16D#\LL	8c#'/ 8cc#'/	.
16G#\	.	.
16F#\	4B#/ 4b#/	.
16G#\JJ	.	.
16D#\LL	.	.
16G#\	.	.
16F#\	4B#/ 4b#/	.
16G#\JJ	.	.
16D#\LL	.	.
16G#\	.	.
16F#\	8B#'/ 8b#'/L	.
16G#\JJ	.	.
16D#\LL	8g#'/ 8gg#'/	.
16G#\	.	.
16F#\	8B#'/ 8b#'/J	.
16G#\JJ	.	.
=123	=123	=123
16E\LL	8d#'/ 8dd#'/	.
16G#\	.	.
16E\	4c#/ 4cc#/	.
16G#\JJ	.	.
16E\LL	.	.
16G#\	.	.
16E\	4c#/ 4cc#/	.
16G#\JJ	.	.
16E\LL	.	.
16G#\	.	.
16E\	8c#'/ 8cc#'/L	.
16G#\JJ	.	.
16E\LL	8g#'/ 8gg#'/	.
16G#\	.	.
16E\	8c#'/ 8cc#'/J	.
16G#\JJ	.	.
=124	=124	=124
16BB#\LL	8e'/ 8ee'/	.
16G#\	.	.
16BB#\	4d#/ 4dd#/	.
16G#\JJ	.	.
16BB#\LL	.	.
16G#\	.	.
16BB#\	4d#/ 4dd#/	.
16G#\JJ	.	.
16BB#\LL	.	.
16G#\	.	.
16BB#\	8d#'/ 8dd#'/L	.
16G#\JJ	.	.
16BB#\LL	8g#'/ 8gg#'/	.
16G#\	.	.
16BB#\	8d#'/ 8dd#'/J	.
16G#\JJ	.	.
=125	=125	=125
16BBn\LL	2e#/ 2ee#/	.
16G#\	.	.
16C#\	.	.
16G#\JJ	.	.
16BB\LL	.	.
16G#\	.	.
16C#\	.	.
16G#\JJ	.	.
16AA\LL	2f#/ 2ff#/	.
16F#\	.	.
16C#\	.	.
16F#\JJ	.	.
16AA\LL	.	.
16F#\	.	.
16C#\	.	.
16F#\JJ	.	.
=126	=126	=126
16AA\LL	(4d#/ 4dd#/	.
16F#\	.	.
16BB\	.	.
16F#\JJ	.	.
.	16cc#q/LL	.
.	16dd#q/JJ	.
16GG#\LL	2.e/) 2.een/	.
16E\	.	.
16BB\	.	.
16E\JJ	.	.
16GG#\LL	.	.
16E\	.	.
16BB\	.	.
16E\JJ	.	.
16GG#\LL	.	.
16E\	.	.
16BB\	.	.
16E\JJ	.	.
=127	=127	=127
16GGn/LL	2c#/ 2cc#/	.
16E/	.	.
16AA/	.	.
16E/JJ	.	.
16GG/LL	.	.
16E/	.	.
16AA/	.	.
16E/JJ	.	.
16FF#/LL	2dn/ 2ddn/	.
16Dn/	.	.
16AA/	.	.
16D/JJ	.	.
16FF#/LL	.	.
16D/	.	.
16AA/	.	.
16D/JJ	.	.
=128	=128	=128
16FF#/LL	(4B#/ 4b#/	.
16D#/	.	.
16GG#/	.	.
16D#/JJ	.	.
.	16a#q/LL	.
.	16b#q/JJ	.
16EE/LL	2.c#/) 2.cc#/	.
16C#/	.	.
16GG#/	.	.
16C#/JJ	.	.
16EE/LL	.	.
16C#/	.	.
16GG#/	.	.
16C#/JJ	.	.
16EE/LL	.	.
16C#/	.	.
16GG#/	.	.
16C#/JJ	.	.
=129	=129	=129
[2FF#/ [2AA/ [2Dn/ [2F#/	[2dn/ [2f#/ [2a/ [2ddn/	ff
4FF#/] 4AA/] 4D/] 4F#/]	16d/] 16f#/] 16a/] 16dd/LL]	.
.	16a/	p
.	16b/	.
.	16cc#/JJ	.
4r	16dd\LL	.
.	16ee\	.
.	16ff#\	.
.	16ee\JJ	.
=130	=130	=130
4F#\ 4A\ 4dn\	16ddn\LL	.
.	16a\	.
.	16b\	.
.	16cc#\JJ	.
4r	16dd\LL	.
.	16ee\	.
.	16ff#\	.
.	16ee\JJ	.
4F#\ 4A\ 4d\	16dd\LL	.
.	16a\	.
.	16b\	.
.	16cc#\JJ	.
4r	16dd\LL	.
.	16ee\	.
.	16ff#\	.
.	16ee\JJ	.
=131	=131	=131
4F#\ 4A\ 4dn\	16ddn\LL	.
.	16a\	.
.	16b\	.
.	16cc#\JJ	.
4F#\ 4A\ 4d\	16dd\LL	.
.	16ee\	.
.	16ff#\	.
.	16gg#\JJ	.
4F#\ 4A\ 4d\	16aa\LL	.
.	16gg#\	.
.	16bb\	.
.	16aa\JJ	.
4F#\ 4A\ 4d\	16ggn\LL	.
.	16ff#\	.
.	16ee\	.
.	16dd\JJ	.
=132	=132	=132
16G#\LL	2cc#\	p
16e\	.	.
16c#\	.	.
16e\JJ	.	.
16G#\LL	.	.
16e\	.	.
16c#\	.	.
16e\JJ	.	.
16G#\LL	2dd#\	.
16f#\	.	.
16B#\	.	.
16f#\JJ	.	.
16G#\LL	.	.
16f#\	.	.
16B#\	.	.
16f#\JJ	.	.
=133	=133	=133
4A'\ 4c#'\ 4e'\	4cc#'\	.
*^	*	*
[4Dn/ [4F#/ [4A/	[4FFF#\ [4AAA\ [4DDn\ [4FF#\	[4dn/	ff
16D/] 16F#/] 16A/]	4FFF#\] 4AAA\] 4DD\] 4FF#\]	16d/LL]	.
8.r	.	16A/	p
.	.	16B/	.
.	.	16c#/JJ	.
*v	*v	*	*
4r	16d/LL	.
.	16e/	.
.	16f#/	.
.	16e/JJ	.
=134	=134	=134
4r	16dn/LL	.
.	16A/	.
.	16B/	.
.	16c#/JJ	.
4FF#/ 4AA/ 4Dn/	16d/LL	.
.	16e/	.
.	16f#/	.
.	16e/JJ	.
4r	16d/LL	.
.	16A/	.
.	16B/	.
.	16c#/JJ	.
4FF#/ 4AA/ 4D/	16d/LL	.
.	16e/	.
.	16f#/	.
.	16e/JJ	.
=135	=135	=135
8r	16dn/LL	.
.	16A/	.
8FF#/ 8AA/ 8Dn/	16B/	.
.	16c#/JJ	.
8r	16d/LL	.
.	16e/	.
8FF#/ 8AA/ 8D/	16f#/	.
.	16gn/JJ	.
8r	16a\LL	.
.	16b\	.
8FF#/ 8AA/ 8D/	16cc#\	.
.	16ddn\JJ	.
8r	16ee\LL	.
.	16ff#\	.
8FF#/ 8AA/ 8D/	16ggn\	.
.	16gg#\JJ	.
=136	=136	=136
*k[f#c#g#d#]	*k[f#c#g#d#]	*k[f#c#g#d#]
16FF#/LL	2a\ 2aa\	f
16Dn/	.	.
16AA/	.	.
16D/JJ	.	.
16FF#/LL	.	.
16D/	.	.
16AA/	.	.
16D/JJ	.	.
16FF##/LL	2c#/ 2cc#/	.
16E/	.	.
16AA#/	.	.
16E/JJ	.	.
16FF##/LL	.	.
16E/	.	.
16AA#/	.	.
16E/JJ	.	.
=137	=137	=137
16GG#/LL	2e/ 2ee/	.
16E/	.	.
16C#/	.	.
16E/JJ	.	.
16GG#/LL	.	.
16E/	.	.
16C#/	.	.
16E/JJ	.	.
16GGG#\LL	2BB#/ 2F#/ 2B#/	.
16GG#\	.	.
16FF##\	.	.
16GG#\JJ	.	.
16FF##\LL	.	.
16GG#\	.	.
16FF##\	.	.
16GG#\JJ	.	.
=138	=138	=138
8CC#\	8C#/ 8E/ 8c#/	.
8C#'\L	8G#'/ 8e'/L	p
8C#'\	8G#'/ 8e'/	.
8C#'\J	8G#'/ 8e'/J	.
8C#'\L	8G#'/ 8e'/L	.
8C#'\	8G#'/ 8e'/	.
8D#'\	8G#'/ 8d#'/	.
8E'\J	8G#'/ 8c#'/J	.
=139	=139	=139
8GG#\ 8F#\	8G#/ 8B#/	.
8F#\ 8G#\L	8B#/ 8g#/L	.
8F#\ 8G#\	8B#/ 8g#/	.
8F#\ 8G#\J	8B#/ 8g#/J	.
8F#\ 8G#\L	8B#/ 8g#/L	.
8F#\ 8G#\	8B#/ 8g#/	.
8E\ 8G#\	8c#/ 8g#/	.
8D#\ 8G#\J	8d#/ 8g#/J	.
=140	=140	=140
8CC#/ 8C#/	8e/ 8g#/	.
8C#/L	8G#/ 8e/L	.
8C#/	8G#/ 8e/	.
8C#/J	8G#/ 8e/J	.
8C#/L	8G#/ 8e/L	.
8C#/	8G#/ 8e/	.
8D#/	8G#/ 8d#/	.
8E/J	8G#/ 8c#/J	.
=141	=141	=141
8GG#\ 8F#\	8G#/ 8B#/	.
8F#\ 8G#\L	8B#/ 8g#/L	.
8F#\ 8G#\	8B#/ 8g#/	.
8F#\ 8G#\J	8B#/ 8g#/J	.
8F#\ 8G#\L	8B#/ 8g#/L	.
8F#\ 8G#\	8B#/ 8g#/	.
8E\ 8G#\	8c#/ 8g#/	.
8D#\ 8G#\J	8d#/ 8g#/J	.
=142	=142	=142
8CC#/ 8C#/	8e'/ 8g#'/	.
8C#'\ 8E'\L	8e'/ 8g#'/L	.
8C#\ (8E\	(8e/ 8g#/	.
8E\ 8G#\J)	8c#/) 8e/J	.
8FF#/	8r	.
8C#'\ 8F#'\L	8f#'/ 8a'/L	.
8C#\ (8F#\	(8f#/ 8a/	.
8F#\ 8A\J)	8c#/) 8f#/J	.
=143	=143	=143
8GG#'/	8r	.
8C#'\ 8E'\L	8e'/ 8g#'/L	.
8C#\ (8E\	(8e/ 8g#/	.
8E\ 8G#\J)	8c#/) 8e/J	.
8GG#/	8r	.
8BB#'\ 8D#'\L	8d#'/ 8g#'/L	.
8BB#\ (8D#\	(8d#/ 8g#/	.
8D#\ 8G#\J)	8B#/) 8d#/J	.
=144	=144	=144
8CC#/ 8C#/	8c#/ 8e/ 8g#/	.
8C#'\ 8G#'\L	8e'/ 8g#'/ 8ee'/L	p
8C#'\ 8G#'\	8e'/ 8g#'/ 8ee'/	.
8C#'\ 8G#'\J	8e'/ 8g#'/ 8ee'/J	.
8C#'\ 8G#'\L	8e'/ 8g#'/ 8ee'/L	.
8C#'\ 8G#'\	8e'/ 8g#'/ 8ee'/	.
8D#'\ 8G#'\	8d#'/ 8f#'/ 8dd#'/	.
8E'\ 8G#'\J	8c#'/ 8e'/ 8cc#'/J	.
=145	=145	=145
8GG#\ 8F#\ 8G#\	8B#/ 8d#/ 8b#/	.
8G#\ 8f#\L	8b#\ 8dd#\ 8bb#\L	f
8G#\ 8f#\	8b#\ 8dd#\ 8bb#\	.
8G#\ 8f#\J	8b#\ 8dd#\ 8bb#\J	.
8G#\ 8f#\L	8b#\ 8dd#\ 8bb#\L	.
8G#\ 8f#\	8b#\ 8dd#\ 8bb#\	.
8G#\ 8e\	8cc#\ 8ee\ 8ccc#\	.
8G#\ 8d#\J	8dd#\ 8ff#\ 8ddd#\J	.
=146	=146	=146
8CC#/ 8C#/	8ee\ 8gg#\ 8eee\	.
8C#\ 8G#\L	8e/ 8g#/ 8ee/L	p
8C#\ 8G#\	8e/ 8g#/ 8ee/	.
8C#\ 8G#\J	8e/ 8g#/ 8ee/J	.
8C#\ 8G#\L	8e/ 8g#/ 8ee/L	.
8C#\ 8G#\	8e/ 8g#/ 8ee/	.
8D#\ 8G#\	8d#/ 8f#/ 8dd#/	.
8E\ 8G#\J	8c#/ 8e/ 8cc#/J	.
=147	=147	=147
8GG#\ 8F#\ 8G#\	8B#/ 8d#/ 8b#/	f
8G#\ 8f#\L	8b#\ 8dd#\ 8bb#\L	.
8G#\ 8f#\	8b#\ 8dd#\ 8bb#\	.
8G#\ 8f#\J	8b#\ 8dd#\ 8bb#\J	.
8G#\ 8f#\L	8b#\ 8dd#\ 8bb#\L	.
8G#\ 8f#\	8b#\ 8dd#\ 8bb#\	.
8G#\ 8e\	8cc#\ 8ee\ 8ccc#\	.
8G#\ 8d#\J	8dd#\ 8ff#\ 8ddd#\J	.
=148	=148	=148
8C#\ 8c#\	8ee\ 8gg#\ 8eee\	.
*clefG2	*	*
8c#'/ 8e'/L	8gg#'\ 8ccc#'\L	p
(8c#/ 8e/	8gg#\ (8ccc#\	.
8e/) 8g#/J	8ee\ 8gg#\J)	.
*clefF4	*	*
8F#'\	8r	.
*clefG2	*	*
8c#'/ 8f#'/L	8aa'\ 8ccc#'\L	.
(8c#/ 8f#/	8aa\ (8ccc#\	.
8f#/) 8a/J	8ff#\ 8aa\J)	.
*clefF4	*	*
=149	=149	=149
8G#'\	8r	.
*clefG2	*	*
8c#'/ 8e'/L	8ee'\ 8gg#'\L	.
(8c#/ 8e/	8ee\ (8gg#\	.
8e/) 8g#/J	8cc#\ 8ee\J)	.
*clefF4	*	*
8F#'\	8r	.
*clefG2	*	*
8B#'/ 8d#'/L	8dd#'\ 8gg#'\L	.
(8B#/ 8d#/	8dd#\ (8gg#\	.
8d#/) 8g#/J	8b#\ 8dd#\J)	.
*clefF4	*	*
=150	=150	=150
8E'\	8r	.
8G#'\ 8c#'\L	8cc#'\ 8gg#'\L	.
8G#\ (8c#\	8cc#'\ (8gg#'\	.
8c#\ 8e\J)	8g#\ 8ee\J)	.
8FF#/	8r	.
8F#'\ (8A'\L	8a'\ 8ff#'\L	.
8F#\ 8A\	8a\ (8ff#\	.
8A\ 8dn\J)	8f#\ 8ddn\J)	.
=151	=151	=151
8GG#/	8r	.
8E'\ 8G#'\L	8g#'/ 8ee'/L	.
8E\ (8G#\	(8g#/ 8ee/	.
8G#\ 8c#\J)	8e/) 8cc#/J	.
8GG#'/	8r	.
8D#\ 8F#\L	8f#/ 8dd#/L	.
8D#\ (8F#\	(8f#/ 8dd#/	.
8F#\ 8B#\J)	8d#/) 8b#/J	.
=152	=152	=152
16CC#/LL	4e/ 4cc#/	p
16C#/	.	.
16GG#/	.	.
16C#/JJ	.	.
16CC#/LL	4r	.
16C#/	.	.
16GG#/	.	.
16C#/JJ	.	.
16CC#/LL	4r	.
16C#/	.	.
16GG#/	.	.
16C#/JJ	.	.
16CC#/LL	(8.e/L	.
16C#/	.	.
16GG#/	.	.
16C#/JJ	16c#/Jk)	.
=153	=153	=153
16CC#\LL	4B#/	.
16D#\	.	.
16GG#\	.	.
16D#\JJ	.	.
16CC#\LL	4F#'/ 4B#'/ (4g#'/	.
16D#\	.	.
16GG#\	.	.
16D#\JJ	.	.
16CC#\LL	4F#'/ 4B#'/ 4g#'/	.
16D#\	.	.
16GG#\	.	.
16D#\JJ	.	.
16CC#\LL	4F#'/ 4B#'/ 4g#'/)	.
16D#\	.	.
16GG#\	.	.
16D#\JJ	.	.
=154	=154	=154
.	16Eq/LL	.
.	16c#q/JJ	.
16CC#/LL	2.g#/	.
16C#/	.	.
16GG#/	.	.
16C#/JJ	.	.
16CC#/LL	.	.
16C#/	.	.
16GG#/	.	.
16C#/JJ	.	.
16CC#/LL	.	.
16C#/	.	.
16GG#/	.	.
16C#/JJ	.	.
16CC#/LL	(8.ee\L	.
16C#/	.	.
16GG#/	.	.
16C#/JJ	16cc#\Jk)	.
=155	=155	=155
16CC#/LL	4b#\	.
16D#/	.	.
16GG#/	.	.
16D#/JJ	.	.
16CC#/LL	4f#'\ 4b#'\ (4gg#'\	.
16D#/	.	.
16GG#/	.	.
16D#/JJ	.	.
16CC#/LL	4f#'\ 4b#'\ 4gg#'\	.
16D#/	.	.
16GG#/	.	.
16D#/JJ	.	.
16CC#/LL	4f#'\ 4b#'\ 4gg#'\)	.
16D#/	.	.
16GG#/	.	.
16D#/JJ	.	.
=156	=156	=156
.	(16eq/LL	.
.	16cc#q/JJ	.
16CC#/LL	2gg#\)	.
16C#/	.	.
16GG#/	.	.
16C#/JJ	.	.
16CC#/LL	.	.
16C#/	.	.
16GG#/	.	.
16C#/JJ	.	.
.	(16f#q/LL	.
.	16bq/JJ)	.
16CC#/LL	2gg#\	.
16D#/	.	.
16GG#/	.	.
16D#/JJ	.	.
16CC#/LL	.	.
16D#/	.	.
16GG#/	.	.
16D#/JJ	.	.
=157	=157	=157
.	(16eq/LL	.
.	16cc#q/JJ	.
16CC#/LL	2gg#\)	.
16C#/	.	.
16GG#/	.	.
16C#/JJ	.	.
16CC#/LL	.	.
16C#/	.	.
16GG#/	.	.
16C#/JJ	.	.
.	(16f#q/LL	.
.	16bq/JJ	.
16CC#/LL	2gg#\)	.
16D#/	.	.
16GG#/	.	.
16D#/JJ	.	.
16CC#/LL	.	.
16D#/	.	.
16GG#/	.	.
16D#/JJ	.	.
=158	=158	=158
*	*clefF4	*clefF4
16CC#\LL	16E/LL	.
16C#\	16c#/	.
16GG#\	16G#/	.
16C#\JJ	16c#/JJ	.
16CC#\LL	16E/LL	.
16C#\	16c#/	.
16GG#\	16G#/	.
16C#\JJ	16c#/JJ	.
16CC#\LL	16E/LL	.
16C#\	16c#/	.
16GG#\	16G#/	.
16C#\JJ	16c#/JJ	.
16CC#\LL	16E/LL	.
16C#\	16c#/	.
16GG#\	16G#/	.
16C#\JJ	16c#/JJ	.
=159	=159	=159
16BBB\LL	16C#/ 16E#/LL	.
16BB\	16c#/	.
16CC#\	16G#/	.
16BB\JJ	16c#/JJ	.
16BBB\LL	16C#/ 16E#/LL	.
16BB\	16c#/	.
16CC#\	16G#/	.
16BB\JJ	16c#/JJ	.
16BBB\LL	16C#/ 16E#/LL	.
16BB\	16c#/	.
16CC#\	16G#/	.
16BB\JJ	16c#/JJ	.
16BBB\LL	16C#/ 16E#/LL	.
16BB\	16c#/	.
16CC#\	16G#/	.
16BB\JJ	16c#/JJ	.
=160	=160	=160
8AAA''\ 8AA''\L	16C#/ 16F#/ 16A/ 16c#/LL	.
.	16C#/	.
8FF#''\	16F#/	.
.	16A/JJ	.
8AAA''\	16c#/LL	.
.	16F#/	.
8FF#''\J	16A/	.
.	16c#/JJ	.
*	*clefG2	*clefG2
8AAA''\L	16f#/LL	.
.	16A/	.
8FF#''\	16c#/	.
.	16f#/JJ	.
8AAA''\	16a/LL	.
.	16c#/	.
8FF#''\J	16f#/	.
.	16a/JJ	.
=161	=161	=161
8AAA''/L	16cc#\LL	.
.	16f#\	.
8FF#''/	16a\	.
.	16cc#\JJ	.
8AAA''/	16ff#\LL	.
.	16a\	.
8FF#''/J	16cc#\	.
.	16ff#\JJ	.
8AAA''/L	16aa\LL	.
.	16cc#\	.
8FF#''/	16ff#\	.
.	16aa\JJ	.
8AAA''/ 8AA''/	8cc#''\ 8ff#''\ 8aa''\ 8ccc#''\L	.
8FF#''/J	8cc#''\ 8ff#''\ 8aa''\ 8ccc#''\J	.
*	*clefF4	*clefF4
=162	=162	=162
8GGG#''\L	16r	.
.	16C#/LL	.
8EE''\	16E/	.
.	16G#/JJ	.
8GGG#''\	16c#/LL	.
.	16E/	.
8EE''\J	16G#/	.
.	16c#/JJ	.
*	*clefG2	*clefG2
8GGG#''\L	16e/LL	.
.	16G#/	.
8EE''\	16c#/	.
.	16e/JJ	.
8GGG#''\	16g#/LL	.
.	16c#/	.
8EE''\J	16e/	.
.	16g#/JJ	.
=163	=163	=163
8GGG#''/L	16cc#\LL	.
.	16e\	.
8EE''/	16g#\	.
.	16cc#\JJ	.
8GGG#''/	16ee\LL	.
.	16g#\	.
8EE''/J	16cc#\	.
.	16ee\JJ	.
8GGG#''/L	16gg#\LL	.
.	16cc#\	.
8EE''/	16ee\	.
.	16gg#\JJ	.
8GGG#''/ 8GG#''/	8cc#''\ 8ee''\ 8gg#''\ 8ccc#''\L	.
8EE''/J	8cc#''\ 8ee''\ 8gg#''\ 8ccc#''\J	.
=164	=164	=164
*^	*	*
8r	[4FFF##\	4r	ff
32C#/LLL	.	.	.
32E/	.	.	.
32F##/	.	.	.
[32A#/JJJ	.	.	.
[4C#/ [4E/ [4F##/ 4A#/_ [4c#/	8FFF##\]	4r	.
.	32FFF##\LLL	.	.
.	32AAA#\	.	.
.	32CC#\	.	.
.	[32EE\JJJ	.	.
8C#/] 8E/] 8F##/] 8A#/] 8c#/]	[4FFF##\ [4AAA#\ [4CC#\ 4EE\_ [4FF#\	8r	.
8r	.	32c#\LLL	.
.	.	32e\	.
.	.	32f##\	.
.	.	[32a#\JJJ	.
4r	8FFF##\] 8AAA#\] 8CC#\] 8EE\] 8FF#\]	[4c#/ [4e/ 4f##/ 4a#/_ [4cc#/	.
.	32FF##\LLL	.	.
.	32AA#\	.	.
.	32C#\	.	.
.	[32E\JJJ	.	.
*v	*v	*	*
=165	=165	=165
4FF#\ 4AA\ 4C#\ 4E\] 4F##\	8c#/] 8e/] 8f##/ 8a#/] 8cc#/]	.
.	32cc#\LLL	.
.	32ee\	.
.	32ff##\	.
.	32aa#\JJJ	.
2.F##;\ 2.A#;\ 2.c#;\ 2.e;\	2.cc#;\ 2.ee;\ 2.ff##;\ 2.aa#;\ 2.ccc#;\	.
=166	=166	=166
*^	*	*
8r	[4FFF#\	4r	ff
32AAn/LLL	.	.	.
32BB#/	.	.	.
32D#/	.	.	.
[32F#/JJJ	.	.	.
[4AA/ [4BB#/ [4D#/ 4F#/_ [4An/	8FFF#\]	4r	.
.	32FFF#\LLL	.	.
.	32AAA\	.	.
.	32BBB#\	.	.
.	[32DD#\JJJ	.	.
8AA/] 8BB#/] 8D#/] 8F#/] 8A/]	[4FFF#\ [4AAA\ [4BBB#\ 4DD#\_ [4FF#\	8r	.
8r	.	32A\LLL	.
.	.	32B\	.
.	.	32d#\	.
.	.	[32f#\JJJ	.
4r	8FFF#\] 8AAA\] 8BBB#\] 8DD#\] 8FF#\]	[4A/ [4B/ [4d#/ 4f#/_ [4an/	.
.	32FF#\LLL	.	.
.	32AA\	.	.
.	32BB#\	.	.
.	[32D#\JJJ	.	.
*v	*v	*	*
=167	=167	=167
4FF#\ 4AA\ 4BB\ 4D#\] 4F#\	16A/] 16B/] 16d#/] 16f#/] 16a/LL]	.
.	16a/	.
.	16b#/	.
.	[16dd#/JJ	.
2.F#;\ 2.A;\ 2.B#;\ 2.d#;\	2.a;\ 2.b#;\ 2.dd#;\] 2.aa;\	.
=168	=168	=168
4C#\	16r	.
.	16g#/LL	p
.	16e/	.
.	16g#/JJ	.
(2G#\	16c#/LL	.
.	16g#/	.
.	16e/	.
.	16g#/JJ	.
.	16c#/LL	.
.	16g#/	.
.	16e/	.
.	16g#/JJ	.
8.E\L	16c#/LL	.
.	16g#/	.
.	16e/	.
16C#\Jk)	16g#/JJ	.
=169	=169	=169
(4C#/	16d#/LL	.
.	16g#/	.
.	16f#/	.
.	16g#/JJ	.
[4BB#/)	16d#/LL	.
.	16g#/	.
.	16f#/	.
.	16g#/JJ	.
8BB#/L]	16d#/LL	.
.	16g#/	.
(8BB#/	16f#/	.
.	16g#/JJ	.
8.G#/	16d#/LL	.
.	16g#/	.
.	16f#/	.
16BB#/Jk)	16g#/JJ	.
=170	=170	=170
(4D#/	16c#/LL	.
.	16g#/	.
.	16e/	.
.	16g#/JJ	.
[4C#/)	16c#/LL	.
.	16g#/	.
.	16e/	.
.	16g#/JJ	.
8C#/L]	16c#/LL	.
.	16g#/	.
(8C#/	16e/	.
.	16g#/JJ	.
8.G#/	16c#/LL	.
.	16g#/	.
.	16e/	.
16C#/Jk)	16g#/JJ	.
=171	=171	=171
(4E\	16B#/LL	.
.	16g#/	.
.	16f#/	.
.	16g#/JJ	.
[4D#\)	16B#/LL	.
.	16g#/	.
.	16f#/	.
.	16g#/JJ	.
8D#\L]	16B#/LL	.
.	16g#/	.
(8D#\	16f#/	.
.	16g#/JJ	.
8.G#\	16B#/LL	.
.	16g#/	.
.	16f#/	.
16D#\Jk)	16g#/JJ	.
=172	=172	=172
16E\LL	4c#/ 4e/ 4g#/	.
16G#\	.	.
16E\	.	.
16G#\JJ	.	.
16E\LL	2g#\ 2gg#\	p
16G#\	.	.
16E\	.	.
16G#\JJ	.	.
16E\LL	.	.
16G#\	.	.
16E\	.	.
16G#\JJ	.	.
16E\LL	(8.e/ 8.ee/L	.
16G#\	.	.
16E\	.	.
16G#\JJ	16c#/) 16cc#/Jk	.
=173	=173	=173
16F#\LL	4c#/ (4cc#/	.
16G#\	.	.
16F#\	.	.
16G#\JJ	.	.
16F#\LL	[4B#/ [4b#/)	.
16G#\	.	.
16F#\	.	.
16G#\JJ	.	.
16F#\LL	8B#/] 8b#/L]	.
16G#\	.	.
16F#\	(8B#/ 8b#/	.
16G#\JJ	.	.
16F#\LL	8.g#/ 8.gg#/	.
16G#\	.	.
16F#\	.	.
16G#\JJ	16B#/) 16b#/Jk	.
=174	=174	=174
16E\LL	4d#/ (4dd#/	.
16G#\	.	.
16E\	.	.
16G#\JJ	.	.
16E\LL	[4c#/ [4cc#/)	.
16G#\	.	.
16E\	.	.
16G#\JJ	.	.
16E\LL	8c#/] 8cc#/L]	.
16G#\	.	.
16E\	(8c#/ 8cc#/	.
16G#\JJ	.	.
16E\LL	8.g#/ 8.gg#/	.
16G#\	.	.
16E\	.	.
16G#\JJ	16c#/) 16cc#/Jk	.
=175	=175	=175
16BB#\LL	4e/ (4ee/	.
16G#\	.	.
16BB#\	.	.
16G#\JJ	.	.
16BB#\LL	[4d#/ [4dd#/)	.
16G#\	.	.
16BB#\	.	.
16G#\JJ	.	.
16BB#\LL	8d#/] 8dd#/L]	.
16G#\	.	.
16BB#\	(8d#/ 8dd#/	.
16G#\JJ	.	.
16BB#\LL	8.g#/ 8.gg#/	.
16G#\	.	.
16BB#\	.	.
16G#\JJ	16d#/) 16dd#/Jk	.
=176	=176	=176
16C#\LL	8f#\ (8ff#\L	.
16G#\	.	.
16C#\	8e\ 8ee\J)	.
16G#\JJ	.	.
16C#\LL	8cc#\ 8ccc#\L	.
16G#\	.	.
16C#\	8e'\ 8ee'\J	.
16G#\JJ	.	.
16BBn/LL	8f#\ (8ff#\L	.
16C#/	.	.
16BB/	8e#\ 8ee#\J)	.
16C#/JJ	.	.
16BB/LL	8cc#'\ 8ccc#'\L	.
16C#/	.	.
16BB/	8e#'\ 8ee#'\J	.
16C#/JJ	.	.
=177	=177	=177
16AA/LL	8g#\ (8gg#\L	.
16C#/	.	.
16AA/	8f#\ 8ff#\J)	.
16C#/JJ	.	.
16AA/LL	8cc#'\ 8ccc#'\L	.
16C#/	.	.
16AA/	8f#'\ 8ff#'\J	.
16C#/JJ	.	.
16EE#/LL	8a\ (8aa\L	.
16C#/	.	.
16EE#/	8g#\ 8gg#\J)	.
16C#/JJ	.	.
16EE#/LL	8cc#'\ 8ccc#'\L	.
16C#/	.	.
16EE#/	8g#'\ 8gg#'\J	.
16C#/JJ	.	.
=178	=178	=178
[1FFF# [1CC# [1FF#	(12aa\L	f
.	12ff#\	.
.	12cc#\J	.
.	12a/L	.
.	12f#/	.
.	12c#/J	.
.	(12a/L)	.
.	12f#/	.
.	12c#/J	.
.	12A/L)	.
.	12F#/	.
.	12C#/J	.
=179	=179	=179
1FFF#] 1CC#] 1FF#]	16A/LL	.
.	16F#/	.
.	16C#/	.
.	16AA/JJ	.
.	16C#/LL	.
.	16F#/	.
.	16A/	.
.	16c#/JJ	.
.	16f#\LL	.
.	16a\	.
.	16cc#\	.
.	16ff#\JJ	.
.	16aa\LL	.
.	16ff#\	.
.	16cc#\	.
.	16a\JJ	.
=180	=180	=180
[1FFF# [1DDn [1FF#	(12aa\L	f
.	12ff#\	.
.	12ddn\J	.
.	12a/L	.
.	12f#/	.
.	12dn/J	.
.	(12a/L)	.
.	12f#/	.
.	12d/J	.
.	12A/L)	.
.	12F#/	.
.	12Dn/J	.
=181	=181	=181
1FFF#] 1DD] 1FF#]	16A/LL	.
.	16F#/	.
.	16Dn/	.
.	16AA/JJ	.
.	16D/LL	.
.	16F#/	.
.	16A/	.
.	16dn/JJ	.
.	16f#\LL	.
.	16a\	.
.	16ddn\	.
.	16ff#\JJ	.
.	16aa\LL	.
.	16ff#\	.
.	16dd\	.
.	16a\JJ	.
=182	=182	=182
[1FFF## [1CC# [1FF##	(12ccc#\L	f
.	12aa#\	.
.	12ff##\J	.
.	12ee\L	.
.	12cc#\	.
.	12a#\J)	.
.	(12ee\L	.
.	12cc#\	.
.	12a#\J	.
.	16f##/LL	.
.	16e/	.
.	16c#/	.
.	16A#/JJ)	.
=183	=183	=183
1FFF##] 1CC#] 1FF##]	16e/LL	.
.	16c#/	.
.	16A#/	.
.	16F##/JJ	.
.	16E/LL	.
.	16C#/	.
.	16E/	.
.	16F##/JJ	.
.	24A#/LL	.
.	24c#/	.
.	24e/	.
.	24f##/	.
.	24a#/	.
.	24cc#/JJ	.
.	(24ee\LL	.
.	24ff##\	.
.	24aa\	.
.	24ccc#\	.
.	24aa\	.
.	24ee\JJ)	.
=184	=184	=184
[1GGG# [1CC# [1GG#	12eee\L	ff
.	12ccc#\	.
.	12gg#\J	.
.	12ee\L	.
.	12cc#\	.
.	12g#\J	.
.	12ee\L	.
.	12cc#\	.
.	12g#\J	.
.	16e/LL	.
.	16cc#/	.
.	16g#/	.
.	16e/JJ	.
=185	=185	=185
1GGG#] 1CC#] 1GG#]	16c#/LL	.
.	16g#/	.
.	16e/	.
.	16c#/JJ	.
.	16G#/LL	.
.	16e/	.
.	16c#/	.
.	16G#/JJ	.
*	*clefF4	*clefF4
.	16E/LL	.
.	16c#/	.
.	16G#/	.
.	16E/JJ	.
.	16C#/LL	.
.	16G#/	.
.	16E/	.
.	16C#/JJ	.
=186	=186	=186
1r	16GG#/LL	.
.	16AA/	.
.	16AA#/	.
.	16BB/JJ	.
.	16BB#/LL	.
.	16C#/	.
.	16C##/	.
.	16D#/JJ	.
.	16E/LL	.
.	16E#/	.
.	16F#/	.
.	16F##/JJ	.
.	16G#/LL	.
.	16A/	.
.	16A#/	.
.	16B/JJ	.
*	*clefG2	*clefG2
=187	=187	=187
1r	16B#/LL	.
.	16c#/	.
.	16c##/	.
.	16d#/JJ	.
.	20e/LL	.
.	20e#/	.
.	20f#/	.
.	20f##/	.
.	20g#/JJ	.
.	20a\LL	.
.	20a#\	.
.	20b\	.
.	20b#\	.
.	20cc#\JJ	.
.	24ddn\LL	.
.	24dd#\	.
.	24ee\JJ	.
.	32ee#\LLL	.
.	32ff#\	.
.	32ff##\	.
.	32gg#\JJJ	.
=188	=188	=188
1G#; 1B#; 1f#;	1aa;	.
=189	=189	=189
1FFF## 1FF##	1r	p
=190	=190	=190
1GGG# 1GG#	1r	.
=191	=191	=191
16CC#\LL	4C#/	p
16C#\	.	.
16GG#\	.	.
16C#\JJ	.	.
16CC#\LL	4r	.
16C#\	.	.
16GG#\	.	.
16C#\JJ	.	.
16CC#\LL	4r	.
16C#\	.	.
16GG#\	.	.
16C#\JJ	.	.
16CC#\LL	(8.e/L	.
16C#\	.	.
16GG#\	.	.
16C#\JJ	16c#/Jk)	.
=192	=192	=192
16CC#\LL	4B#/	.
16D#\	.	.
16GG#\	.	.
16D#\JJ	.	.
16CC#\LL	4F#'/ 4B#'/ (4g#'/	.
16D#\	.	.
16GG#\	.	.
16D#\JJ	.	.
16CC#\LL	4F#'/ 4B#'/ 4g#'/	.
16D#\	.	.
16GG#\	.	.
16D#\JJ	.	.
16CC#\LL	4F#'/ 4B#'/ 4g#'/)	.
16D#\	.	.
16GG#\	.	.
16D#\JJ	.	.
=193	=193	=193
.	16Eq/LL	.
.	16c#q/JJ	.
16CC#/LL	2.g#/	.
16C#/	.	.
16GG#/	.	.
16C#/JJ	.	.
16CC#/LL	.	.
16C#/	.	.
16GG#/	.	.
16C#/JJ	.	.
16CC#/LL	.	.
16C#/	.	.
16GG#/	.	.
16C#/JJ	.	.
16CC#/LL	(8.ee\L	.
16C#/	.	.
16GG#/	.	.
16C#/JJ	16cc#\Jk)	.
=194	=194	=194
16CC#/LL	4b#\	.
16D#/	.	.
16GG#/	.	.
16D#/JJ	.	.
16CC#/LL	4f#'\ 4b#'\ (4gg#'\	.
16D#/	.	.
16GG#/	.	.
16D#/JJ	.	.
16CC#/LL	4f#'\ 4b#'\ 4gg#'\	.
16D#/	.	.
16GG#/	.	.
16D#/JJ	.	.
16CC#/LL	4f#'\ 4b#'\ 4gg#'\)	.
16D#/	.	.
16GG#/	.	.
16D#/JJ	.	.
=195	=195	=195
.	(16eq/LL	.
.	16cc#q/JJ	.
16CC#/LL	2gg#\)	.
16C#/	.	.
16GG#/	.	.
16C#/JJ	.	.
16CC#/LL	.	.
16C#/	.	.
16GG#/	.	.
16C#/JJ	.	.
.	(16f#q/LL	.
.	16bq/JJ)	.
16CC#/LL	2gg#\	.
16D#/	.	.
16GG#/	.	.
16D#/JJ	.	.
16CC#/LL	.	.
16D#/	.	.
16GG#/	.	.
16D#/JJ	.	.
=196	=196	=196
.	(16eq/LL	.
.	16cc#q/JJ	.
16CC#/LL	2gg#\)	.
16C#/	.	.
16GG#/	.	.
16C#/JJ	.	.
16CC#/LL	.	.
16C#/	.	.
16GG#/	.	.
16C#/JJ	.	.
.	(16f#q/LL	.
.	16bq/JJ	.
16CC#/LL	2gg#\)	.
16D#/	.	.
16GG#/	.	.
16D#/JJ	.	.
16CC#/LL	.	.
16D#/	.	.
16GG#/	.	.
16D#/JJ	.	.
=197	=197	=197
.	(16eq/LL	.
.	16cc#q/JJ	.
16CC#/	16gg#\LL)	f
16E\LL	16e\	.
16G#\	16g#\	.
16c#\JJ	16cc#\JJ	.
*clefG2	*	*
16e/LL	16ee\LL	.
16G#/	16g#\	.
16c#/	16cc#\	.
16e/JJ	16ee\JJ	.
16g#/LL	16gg#\LL	.
16c#/	16cc#\	.
16e/	16ee\	.
16g#/JJ	16gg#\JJ	.
16cc#/LL	16ccc#\LL	.
16e/	16ee\	.
16g#/	16gg#\	.
16cc#/JJ	16ccc#\JJ	.
=198	=198	=198
16ee\LL	16eee\LL	.
16cc#\	16ccc#\	.
16g#\	16gg#\	.
16e\JJ	16ee\JJ	.
16cc#\LL	16ccc#\LL	.
16g#\	16gg#\	.
16e\	16ee\	.
16c#\JJ	16cc#\JJ	.
*clefF4	*	*
16g#\LL	16gg#\LL	.
16e\	16ee\	.
16c#\	16cc#\	.
16G#\JJ	16g#\JJ	.
16e\LL	16ee\LL	.
16c#\	16cc#\	.
16G#\	16g#\	.
16E\JJ	16e\JJ	.
=199	=199	=199
16c#\LL	16cc#/LL	.
16G#\	16g#/	.
16E\	16e/	.
16C#\JJ	16c#/JJ	.
16G#\LL	16g#/LL	.
16E\	16e/	.
16C#\	16c#/	.
16GG#\JJ	16G#/JJ	.
16E\LL	16e/LL	.
16C#\	16c#/	.
16GG#\	16G#/	.
16EE\JJ	16E/JJ	.
16C#\LL	16c#/LL	.
16GG#\	16G#/	.
16EE\	16E/	.
16GG#\JJ	16G#/JJ	.
=200	=200	=200
4CC#/	4C#/	.
4r	4r	.
4CC#''/ 4EE''/ 4GG#''/ 4C#''/	4cc#''\ 4ee''\ 4gg#''\ 4ccc#''\	ff
4r	4r	.
=201	=201	=201
4CC#''/ 4EE''/ 4GG#''/ 4C#''/	4c#''/ 4e''/ 4g#''/ 4cc#''/	.
4r	4r	.
2r	2r	.
==	==	==
*-	*-	*-
!!!ENC: Craig Stuart Sapp
!!!END: 2004/09/06/
!!!hum2abc: -s 0.65  --spacing 1.57
